;FLAVOR:Marlin
;TIME:21621
;Filament used: 16.9295m
;Layer height: 0.2
;MINX:54.4
;MINY:54.4
;MINZ:0.2
;MAXX:165.5
;MAXY:165.499
;MAXZ:62
;Generated with Cura_SteamEngine 5.3.0
M82 ;absolute extrusion mode
; Ender 3 Custom Start G-code
G92 E0 ; Reset Extruder
G28 ; Home all axes
M104 S180.0 ; Start heating up the nozzle most of the way
M190 S65.0 ; Start heating the bed, wait until target temperature reached
M109 S210.0 ; Finish heating the nozzle
G1 Z2.0 F3000 ; Move Z Axis up little to prevent scratching of Heat Bed
G1 X0.1 Y20 Z0.3 F5000.0 ; Move to start position
G1 X0.1 Y200.0 Z0.3 F1500.0 E15 ; Draw the first line
G1 X0.4 Y200.0 Z0.3 F5000.0 ; Move to side a little
G1 X0.4 Y20 Z0.3 F1500.0 E30 ; Draw the second line
G92 E0 ; Reset Extruder
G1 Z2.0 F3000 ; Move Z Axis up little to prevent scratching of Heat Bed
G1 X5 Y20 Z0.3 F5000.0 ; Move over to prevent blob squish
G92 E0
G92 E0
G1 F1500 E-6.5
;LAYER_COUNT:310
;LAYER:0
M107
G0 F6000 X56.239 Y56.429 Z0.2
;TYPE:SKIRT
G1 F1500 E0
G1 F1200 X56.711 Y55.99 E0.02144
G1 X57.233 Y55.612 E0.04288
G1 X57.799 Y55.303 E0.06432
G1 X58.398 Y55.065 E0.08576
G1 X59.022 Y54.904 E0.10719
G1 X59.864 Y54.811 E0.13537
G1 X60.33 Y54.8 E0.15087
G1 X159.266 Y54.801 E3.4415
G1 X159.964 Y54.811 E3.46472
G1 X160.607 Y54.86 E3.48616
G1 X161.239 Y54.988 E3.50761
G1 X161.85 Y55.194 E3.52906
G1 X162.431 Y55.473 E3.55049
G1 X162.973 Y55.822 E3.57194
G1 X163.467 Y56.236 E3.59337
G1 X163.907 Y56.708 E3.61484
G1 X164.285 Y57.23 E3.63627
G1 X164.595 Y57.795 E3.65771
G1 X164.833 Y58.394 E3.67914
G1 X164.995 Y59.018 E3.70059
G1 X165.088 Y59.864 E3.72889
G1 X165.099 Y60.325 E3.74423
G1 X165.1 Y61.331 E3.77769
G1 X165.09 Y62.07 E3.80227
G1 X165.077 Y62.366 E3.81213
G1 X165.013 Y63.273 E3.84237
G1 X164.857 Y66.033 E3.93431
G1 X164.782 Y68.703 E4.02315
G1 X164.782 Y71.38 E4.11219
G1 X164.859 Y74.059 E4.20133
G1 X165.012 Y76.763 E4.29141
G1 X165.062 Y77.395 E4.3125
G1 X165.095 Y78.129 E4.33693
G1 X165.1 Y79.34 E4.37721
G1 X165.09 Y80.064 E4.40129
G1 X165.041 Y80.707 E4.42274
G1 X164.913 Y81.338 E4.44416
G1 X164.707 Y81.95 E4.46563
G1 X164.428 Y82.531 E4.48707
G1 X164.079 Y83.073 E4.50851
G1 X163.666 Y83.567 E4.52993
G1 X163.194 Y84.007 E4.55139
G1 X162.672 Y84.385 E4.57283
G1 X162.107 Y84.696 E4.59428
G1 X161.472 Y84.945 E4.61696
G1 X160.251 Y85.335 E4.65959
G1 X157.632 Y86.216 E4.7515
G1 X155.141 Y87.133 E4.83979
G1 X152.635 Y88.136 E4.92956
G1 X150.175 Y89.204 E5.01876
G1 X147.735 Y90.346 E5.10837
G1 X145.372 Y91.534 E5.19633
G1 X142.974 Y92.826 E5.28693
G1 X140.676 Y94.15 E5.37514
G1 X138.387 Y95.554 E5.46445
G1 X136.129 Y97.03 E5.55418
G1 X133.951 Y98.545 E5.64242
G1 X131.778 Y100.148 E5.73223
G1 X129.663 Y101.802 E5.82153
G1 X127.59 Y103.521 E5.9111
G1 X125.581 Y105.285 E6.00002
G1 X123.627 Y107.099 E6.0887
G1 X121.735 Y108.961 E6.17699
G1 X119.838 Y110.935 E6.26805
G1 X118.061 Y112.892 E6.35597
G1 X115.946 Y115.37 E6.46433
G1 X115.498 Y115.833 E6.48576
G1 X114.996 Y116.238 E6.50721
G1 X114.531 Y116.531 E6.52549
G1 X113.375 Y117.178 E6.56955
G1 X111.01 Y118.545 E6.66041
G1 X108.719 Y119.959 E6.74995
G1 X106.485 Y121.426 E6.83884
G1 X104.295 Y122.954 E6.92766
G1 X102.124 Y124.561 E7.0175
G1 X100.023 Y126.211 E7.10635
G1 X97.962 Y127.927 E7.19555
G1 X95.951 Y129.7 E7.28472
G1 X94.001 Y131.519 E7.37341
G1 X92.101 Y133.393 E7.46217
G1 X90.219 Y135.359 E7.55269
G1 X88.434 Y137.333 E7.64121
G1 X86.683 Y139.382 E7.73086
G1 X84.998 Y141.47 E7.8201
G1 X83.378 Y143.6 E7.9091
G1 X81.815 Y145.78 E7.99832
G1 X80.32 Y147.995 E8.0872
G1 X78.882 Y150.26 E8.17644
G1 X77.51 Y152.562 E8.26557
G1 X76.208 Y154.897 E8.35449
G1 X74.948 Y157.311 E8.44506
G1 X73.795 Y159.685 E8.53284
G1 X72.731 Y162.035 E8.61864
G1 X72.429 Y162.604 E8.64006
G1 X72.059 Y163.132 E8.66151
G1 X71.627 Y163.61 E8.68293
G1 X71.139 Y164.031 E8.70437
G1 X70.602 Y164.389 E8.72584
G1 X70.025 Y164.677 E8.74729
G1 X69.418 Y164.891 E8.76869
G1 X68.788 Y165.029 E8.79014
G1 X68.16 Y165.087 E8.81112
G1 X67.713 Y165.099 E8.82599
G1 X66.64 Y165.098 E8.86168
G1 X65.502 Y165.082 E8.89953
G1 X62.742 Y165.082 E8.99133
G1 X62.094 Y165.096 E9.01289
G1 X60.64 Y165.099 E9.06125
G1 X59.942 Y165.09 E9.08447
G1 X59.299 Y165.041 E9.10592
G1 X58.667 Y164.914 E9.12736
G1 X58.056 Y164.709 E9.14879
G1 X57.475 Y164.431 E9.17021
G1 X56.932 Y164.082 E9.19168
G1 X56.437 Y163.669 E9.21312
G1 X55.997 Y163.198 E9.23456
G1 X55.618 Y162.676 E9.25602
G1 X55.307 Y162.112 E9.27744
G1 X55.069 Y161.513 E9.29888
G1 X54.906 Y160.889 E9.32033
G1 X54.811 Y160.03 E9.34907
G1 X54.8 Y159.557 E9.36481
G1 X54.801 Y60.596 E12.65626
G1 X54.811 Y59.931 E12.67839
G1 X54.86 Y59.288 E12.69983
G1 X54.989 Y58.656 E12.72129
G1 X55.195 Y58.045 E12.74273
G1 X55.475 Y57.465 E12.76415
G1 X55.825 Y56.923 E12.78561
G1 X56.239 Y56.429 E12.80705
G0 F6000 X55.932 Y56.172
G1 F1200 X56.476 Y55.666 E12.83176
G1 X57.041 Y55.261 E12.85488
G1 X57.651 Y54.931 E12.87795
G1 X58.25 Y54.693 E12.89939
G1 X58.978 Y54.506 E12.92439
G1 X59.82 Y54.413 E12.95256
G1 X60.33 Y54.4 E12.96953
G1 X159.272 Y54.401 E16.26036
G1 X159.994 Y54.412 E16.28437
G1 X160.637 Y54.461 E16.30582
G1 X161.367 Y54.609 E16.33059
G1 X162.023 Y54.833 E16.35365
G1 X162.604 Y55.112 E16.37509
G1 X163.23 Y55.515 E16.39985
G1 X163.76 Y55.963 E16.42293
G1 X164.2 Y56.435 E16.44439
G1 X164.609 Y56.995 E16.46746
G1 X164.967 Y57.647 E16.4922
G1 X165.205 Y58.246 E16.51363
G1 X165.393 Y58.974 E16.53864
G1 X165.486 Y59.82 E16.56695
G1 X165.499 Y60.325 E16.58375
G1 X165.5 Y61.336 E16.61738
G1 X165.49 Y62.088 E16.64239
G1 X165.476 Y62.394 E16.65258
G1 X165.412 Y63.301 E16.68282
G1 X165.257 Y66.044 E16.7742
G1 X165.182 Y68.714 E16.86304
G1 X165.182 Y71.38 E16.95171
G1 X165.259 Y74.048 E17.04049
G1 X165.411 Y76.731 E17.12987
G1 X165.462 Y77.377 E17.15142
G1 X165.495 Y78.127 E17.17639
G1 X165.5 Y79.346 E17.21693
G1 X165.489 Y80.094 E17.24181
G1 X165.433 Y80.787 E17.26494
G1 X165.292 Y81.466 E17.288
G1 X165.068 Y82.123 E17.31109
G1 X164.789 Y82.704 E17.33253
G1 X164.386 Y83.33 E17.35729
G1 X163.939 Y83.86 E17.38035
G1 X163.467 Y84.3 E17.40181
G1 X162.907 Y84.709 E17.42488
G1 X162.3 Y85.046 E17.44797
G1 X161.594 Y85.326 E17.47323
G1 X160.373 Y85.716 E17.51586
G1 X157.76 Y86.595 E17.60755
G1 X155.29 Y87.504 E17.69509
G1 X152.794 Y88.503 E17.78451
G1 X150.334 Y89.571 E17.87371
G1 X147.905 Y90.708 E17.96291
G1 X145.562 Y91.886 E18.05014
G1 X143.174 Y93.173 E18.14036
G1 X140.876 Y94.497 E18.22857
G1 X138.606 Y95.889 E18.31714
G1 X136.348 Y97.364 E18.40684
G1 X134.188 Y98.867 E18.49437
G1 X132.015 Y100.47 E18.58418
G1 X129.918 Y102.11 E18.67272
G1 X127.854 Y103.822 E18.76191
G1 X125.845 Y105.586 E18.85083
G1 X123.908 Y107.384 E18.93874
G1 X122.016 Y109.246 E19.02703
G1 X120.134 Y111.204 E19.11736
G1 X118.357 Y113.161 E19.20528
G1 X116.25 Y115.63 E19.31323
G1 X115.749 Y116.144 E19.33711
G1 X115.247 Y116.549 E19.35856
G1 X114.726 Y116.88 E19.37909
G1 X113.57 Y117.527 E19.42315
G1 X111.21 Y118.891 E19.51381
G1 X108.939 Y120.293 E19.60258
G1 X106.705 Y121.76 E19.69147
G1 X104.533 Y123.276 E19.77957
G1 X102.362 Y124.883 E19.86941
G1 X100.27 Y126.526 E19.95788
G1 X98.227 Y128.227 E20.0463
G1 X96.216 Y130 E20.13547
G1 X94.282 Y131.804 E20.22343
G1 X92.382 Y133.678 E20.3122
G1 X90.508 Y135.636 E20.40234
G1 X88.731 Y137.601 E20.49046
G1 X86.987 Y139.642 E20.57975
G1 X85.309 Y141.721 E20.66861
G1 X83.703 Y143.833 E20.75686
G1 X82.147 Y146.004 E20.84569
G1 X80.652 Y148.219 E20.93458
G1 X79.226 Y150.465 E21.02306
G1 X77.854 Y152.767 E21.1122
G1 X76.563 Y155.082 E21.20036
G1 X75.303 Y157.496 E21.29093
G1 X74.155 Y159.86 E21.37833
G1 X73.084 Y162.223 E21.46462
G1 X72.757 Y162.834 E21.48767
G1 X72.387 Y163.362 E21.50912
G1 X71.924 Y163.878 E21.53217
G1 X71.361 Y164.364 E21.55691
G1 X70.781 Y164.747 E21.58003
G1 X70.204 Y165.035 E21.60148
G1 X69.504 Y165.282 E21.62617
G1 X68.874 Y165.42 E21.64762
G1 X68.171 Y165.487 E21.6711
G1 X67.724 Y165.499 E21.68598
G1 X66.634 Y165.498 E21.72223
G1 X65.496 Y165.482 E21.76008
G1 X62.751 Y165.482 E21.85138
G1 X62.095 Y165.496 E21.87321
G1 X60.635 Y165.499 E21.92177
G1 X59.912 Y165.489 E21.94582
G1 X59.269 Y165.44 E21.96727
G1 X58.588 Y165.306 E21.99035
G1 X57.883 Y165.07 E22.01508
G1 X57.302 Y164.792 E22.0365
G1 X56.676 Y164.389 E22.06126
G1 X56.145 Y163.942 E22.08435
G1 X55.673 Y163.433 E22.10744
G1 X55.294 Y162.911 E22.12889
G1 X54.935 Y162.26 E22.15362
G1 X54.697 Y161.661 E22.17505
G1 X54.508 Y160.933 E22.20007
G1 X54.413 Y160.074 E22.22882
G1 X54.4 Y159.557 E22.24602
G1 X54.401 Y60.59 E25.53767
G1 X54.412 Y59.901 E25.56059
G1 X54.468 Y59.208 E25.58372
G1 X54.597 Y58.576 E25.60517
G1 X54.816 Y57.917 E25.62827
G1 X55.139 Y57.248 E25.65298
G1 X55.518 Y56.666 E25.67608
G1 X55.932 Y56.172 E25.69751
G1 F1500 E19.19751
;MESH:BLT.stl
G0 F6000 X72.86 Y114.541
G0 X74.964 Y120.902
;TYPE:WALL-OUTER
G1 F1500 E25.69751
G1 F1200 X74.334 Y121.042 E25.71898
G1 X73.659 Y121.04 E25.74143
G1 X73.034 Y120.903 E25.76271
G1 X72.451 Y120.639 E25.784
G1 X71.94 Y120.259 E25.80518
G1 X71.514 Y119.781 E25.82647
G1 X71.199 Y119.23 E25.84758
G1 X71.004 Y118.627 E25.86866
G1 X70.941 Y117.979 E25.89031
G1 X71.011 Y117.345 E25.91153
G1 X71.199 Y116.771 E25.93162
G1 X71.537 Y116.185 E25.95412
G1 X71.972 Y115.712 E25.97549
G1 X72.449 Y115.363 E25.99515
G1 X73.06 Y115.089 E26.01742
G1 X73.689 Y114.956 E26.03881
G1 X74.317 Y114.956 E26.05969
G1 X74.945 Y115.089 E26.08104
G1 X75.549 Y115.361 E26.10308
G1 X76.06 Y115.741 E26.12426
G1 X76.461 Y116.185 E26.14415
G1 X76.801 Y116.77 E26.16666
G1 X76.998 Y117.387 E26.1882
G1 X77.059 Y118.021 E26.20939
G1 X76.996 Y118.627 E26.22965
G1 X76.801 Y119.229 E26.2507
G1 X76.463 Y119.815 E26.2732
G1 X76.028 Y120.288 E26.29457
G1 X75.551 Y120.637 E26.31423
G1 X74.964 Y120.902 E26.33565
G1 F1500 E19.83565
G0 F6000 X75.084 Y121.176
G0 X74.384 Y121.625
G0 X74.384 Y123.58
G0 X67.8 Y159.699
G1 F1500 E26.33565
G1 F1200 X67.8 Y124 E27.523
G1 X67.839 Y123.879 E27.52723
G1 X67.943 Y123.8 E27.53158
G1 X79.8 Y123.8 E27.92594
G1 X79.801 Y111.974 E28.31928
G1 X79.87 Y111.847 E28.32408
G1 X79.984 Y111.8 E28.32818
G1 X111.8 Y111.8 E29.38639
G1 X111.808 Y91.94 E30.04693
G1 X111.877 Y91.841 E30.05095
G1 X111.963 Y91.803 E30.05408
G1 X123.8 Y91.8 E30.44778
G1 X123.8 Y79.941 E30.84221
G1 X123.88 Y79.839 E30.84652
G1 X123.965 Y79.802 E30.8496
G1 X159.7 Y79.8 E32.03815
G1 X159.699 Y78.2 E32.09137
G1 X109.994 Y78.2 E33.74456
G1 X109.888 Y78.167 E33.74826
G1 X109.8 Y78.018 E33.75401
G1 X109.8 Y61.941 E34.28874
G1 X109.88 Y61.839 E34.29305
G1 X109.965 Y61.802 E34.29613
G1 X159.7 Y61.8 E35.95032
G1 X159.699 Y60.2 E36.00354
G1 X60.201 Y60.201 E39.31286
G1 X60.2 Y159.699 E42.62217
G1 X61.8 Y159.699 E42.67539
G1 X61.8 Y110 E44.32839
G1 X61.839 Y109.879 E44.33261
G1 X61.943 Y109.8 E44.33696
G1 X66.027 Y109.801 E44.47279
G1 X66.133 Y109.849 E44.47666
G1 X66.2 Y109.983 E44.48164
G1 X66.2 Y159.699 E46.13521
G1 X67.8 Y159.699 E46.18842
G1 F1500 E39.68842
G0 F6000 X67.53 Y159.43
G0 X67.572 Y123.572
G0 X79.572 Y123.572
G0 X79.572 Y111.572
G0 X111.228 Y111.228
G0 X111.221 Y91.931
G0 X116.176 Y89.156
G0 X117.659 Y89.04
G1 F1500 E46.18842
G1 F1200 X117.034 Y88.903 E46.2097
G1 X116.451 Y88.639 E46.23099
G1 X115.94 Y88.259 E46.25217
G1 X115.514 Y87.781 E46.27347
G1 X115.199 Y87.23 E46.29457
G1 X115.005 Y86.632 E46.31548
G1 X114.941 Y86.021 E46.33592
G1 X115.005 Y85.368 E46.35774
G1 X115.199 Y84.771 E46.37862
G1 X115.537 Y84.185 E46.40112
G1 X115.972 Y83.712 E46.42249
G1 X116.449 Y83.363 E46.44215
G1 X117.036 Y83.098 E46.46357
G1 X117.666 Y82.958 E46.48504
G1 X118.341 Y82.96 E46.50749
G1 X118.966 Y83.097 E46.52877
G1 X119.549 Y83.361 E46.55006
G1 X120.06 Y83.741 E46.57124
G1 X120.461 Y84.185 E46.59113
G1 X120.801 Y84.77 E46.61364
G1 X120.998 Y85.387 E46.63518
G1 X121.059 Y86.021 E46.65637
G1 X120.996 Y86.627 E46.67663
G1 X120.801 Y87.229 E46.69768
G1 X120.463 Y87.815 E46.72018
G1 X120.028 Y88.288 E46.74155
G1 X119.551 Y88.637 E46.76121
G1 X118.964 Y88.902 E46.78263
G1 X118.334 Y89.042 E46.80409
G1 X117.659 Y89.04 E46.82654
G0 F6000 X117.633 Y89.444
;TYPE:WALL-INNER
G1 F1200 X116.931 Y89.295 E46.85041
G1 X116.268 Y89.001 E46.87454
G1 X115.683 Y88.571 E46.89868
G1 X115.199 Y88.035 E46.9227
G1 X114.838 Y87.411 E46.94668
G1 X114.613 Y86.71 E46.97117
G1 X114.536 Y85.998 E46.99499
G1 X114.613 Y85.288 E47.01874
G1 X114.837 Y84.592 E47.04306
G1 X115.197 Y83.965 E47.06711
G1 X115.687 Y83.425 E47.09136
G1 X116.264 Y83.003 E47.11513
G1 X116.929 Y82.707 E47.13934
G1 X117.634 Y82.556 E47.16333
G1 X118.367 Y82.556 E47.1877
G1 X119.071 Y82.705 E47.21164
G1 X119.725 Y82.996 E47.23545
G1 X120.316 Y83.428 E47.2598
G1 X120.798 Y83.961 E47.2837
G1 X121.162 Y84.588 E47.30781
G1 X121.39 Y85.285 E47.3322
G1 X121.464 Y86.001 E47.35614
G1 X121.387 Y86.724 E47.38033
G1 X121.161 Y87.414 E47.40447
G1 X120.8 Y88.039 E47.42848
G1 X120.313 Y88.575 E47.45257
G1 X119.736 Y88.997 E47.47634
G1 X119.071 Y89.293 E47.50055
G1 X118.366 Y89.444 E47.52453
G1 X117.633 Y89.444 E47.54891
G1 F1500 E41.04891
G0 F6000 X117.612 Y89.543
G0 X116.176 Y89.156
G0 X77.645 Y118.002
G0 X75.071 Y121.293
G1 F1500 E47.54891
G1 F1200 X74.366 Y121.444 E47.57289
G1 X73.633 Y121.444 E47.59727
G1 X72.931 Y121.295 E47.62114
G1 X72.268 Y121.001 E47.64526
G1 X71.683 Y120.571 E47.66941
G1 X71.199 Y120.035 E47.69343
G1 X70.838 Y119.412 E47.71738
G1 X70.613 Y118.724 E47.74146
G1 X70.536 Y118 E47.76567
G1 X70.612 Y117.28 E47.78975
G1 X70.837 Y116.591 E47.81386
G1 X71.197 Y115.965 E47.83788
G1 X71.687 Y115.425 E47.86213
G1 X72.266 Y115.001 E47.886
G1 X72.944 Y114.706 E47.91059
G1 X73.635 Y114.556 E47.93411
G1 X74.369 Y114.556 E47.95852
G1 X75.065 Y114.707 E47.98221
G1 X75.732 Y115 E48.00644
G1 X76.317 Y115.429 E48.03057
G1 X76.798 Y115.961 E48.05442
G1 X77.162 Y116.588 E48.07854
G1 X77.39 Y117.285 E48.10293
G1 X77.464 Y118.001 E48.12687
G1 X77.387 Y118.724 E48.15105
G1 X77.161 Y119.414 E48.1752
G1 X76.8 Y120.039 E48.19921
G1 X76.313 Y120.575 E48.2233
G1 X75.736 Y120.997 E48.24707
G1 X75.071 Y121.293 E48.27128
G1 F1500 E41.77128
G0 F6000 X74.384 Y121.625
G0 X74.384 Y123.58
G0 X67.4 Y159.299
G1 F1500 E48.27128
G1 F1200 X67.4 Y124 E49.44533
G1 X67.519 Y123.639 E49.45797
G1 X67.769 Y123.446 E49.46848
G1 X68 Y123.4 E49.47631
G1 X79.4 Y123.4 E49.85548
G1 X79.404 Y111.924 E50.23717
G1 X79.491 Y111.681 E50.24576
G1 X79.638 Y111.521 E50.25298
G1 X79.952 Y111.401 E50.26416
G1 X111.4 Y111.4 E51.31013
G1 X111.4 Y91.974 E51.95624
G1 X111.5 Y91.667 E51.96698
G1 X111.632 Y91.525 E51.97343
G1 X111.767 Y91.446 E51.97863
G1 X111.981 Y91.4 E51.98591
G1 X123.4 Y91.4 E52.36571
G1 X123.4 Y80 E52.74487
G1 X123.446 Y79.768 E52.75274
G1 X123.64 Y79.519 E52.76324
G1 X123.914 Y79.4 E52.77317
G1 X159.3 Y79.4 E53.95012
G1 X159.299 Y78.6 E53.97672
G1 X109.892 Y78.6 E55.62001
G1 X109.637 Y78.479 E55.62939
G1 X109.45 Y78.242 E55.63944
G1 X109.4 Y78.027 E55.64678
G1 X109.4 Y62 E56.17984
G1 X109.446 Y61.768 E56.1877
G1 X109.64 Y61.519 E56.1982
G1 X109.914 Y61.4 E56.20814
G1 X159.3 Y61.4 E57.85072
G1 X159.299 Y60.6 E57.87733
G1 X60.601 Y60.601 E61.16004
G1 X60.6 Y159.299 E64.44275
G1 X61.4 Y159.299 E64.46936
G1 X61.4 Y110 E66.10905
G1 X61.519 Y109.639 E66.12169
G1 X61.769 Y109.446 E66.1322
G1 X62 Y109.4 E66.14003
G1 X66.106 Y109.4 E66.2766
G1 X66.328 Y109.497 E66.28465
G1 X66.521 Y109.701 E66.29399
G1 X66.6 Y109.898 E66.30105
G1 X66.6 Y159.299 E67.94414
G1 X67.4 Y159.299 E67.97075
G0 F6000 X67 Y158.899
;TYPE:SKIN
G1 F1000 X67 Y124.004 E69.36348
G1 F987.7 X67.006 Y123.927 E69.3666
G1 F1500 E62.8666
G0 F6000 X66.7 Y123.927
G0 X66.772 Y159.127
G0 X67.228 Y159.127
G0 X67.572 Y123.572
G0 X79.228 Y123.228
G0 X79.04 Y123.04
G1 F1500 E69.3666
G1 F1200 X79.041 Y111.836 E69.73925
G1 X79.169 Y111.515 E69.75074
G1 X79.379 Y111.264 E69.76163
G1 X79.698 Y111.088 E69.77374
G1 X79.87 Y111.047 E69.77963
G1 X111.04 Y111.04 E70.81634
G1 X111.046 Y91.922 E71.45221
G1 X111.138 Y91.566 E71.46444
G1 X111.402 Y91.248 E71.47819
G1 X111.683 Y91.096 E71.48881
G1 X111.938 Y91.042 E71.49748
G1 X123.04 Y91.04 E71.86674
G1 X123.043 Y79.965 E72.23509
G1 X123.111 Y79.622 E72.24672
G1 F1170.7 X123.411 Y79.238 E72.26334
G1 F1113.7 X123.844 Y79 E72.28104
G1 F1140.1 X123.415 Y78.961 E72.29612
