;FLAVOR:Marlin
;TIME:21555
;Filament used: 16.9707m
;Layer height: 0.2
;MINX:54.35
;MINY:54.451
;MINZ:0.2
;MAXX:165.55
;MAXY:165.65
;MAXZ:62
;Generated with Cura_SteamEngine 5.3.0
M82 ;absolute extrusion mode
; Ender 3 Custom Start G-code
G92 E0 ; Reset Extruder
G28 ; Home all axes
M104 S175 ; Start heating up the nozzle most of the way
M190 S60 ; Start heating the bed, wait until target temperature reached
M109 S200 ; Finish heating the nozzle
G1 Z2.0 F3000 ; Move Z Axis up little to prevent scratching of Heat Bed
G1 X0.1 Y20 Z0.3 F5000.0 ; Move to start position
G1 X0.1 Y200.0 Z0.3 F1500.0 E15 ; Draw the first line
G1 X0.4 Y200.0 Z0.3 F5000.0 ; Move to side a little
G1 X0.4 Y20 Z0.3 F1500.0 E30 ; Draw the second line
G92 E0 ; Reset Extruder
G1 Z2.0 F3000 ; Move Z Axis up little to prevent scratching of Heat Bed
G1 X5 Y20 Z0.3 F5000.0 ; Move over to prevent blob squish
G92 E0
G92 E0
G1 F1500 E-6.5
;LAYER_COUNT:310
;LAYER:0
M107
G0 F6000 X56.182 Y56.486 Z0.2
;TYPE:SKIRT
G1 F1500 E0
G1 F1200 X56.653 Y56.046 E0.02144
G1 X57.176 Y55.668 E0.0429
G1 X57.74 Y55.357 E0.06432
G1 X58.339 Y55.119 E0.08576
G1 X58.963 Y54.956 E0.10721
G1 X59.813 Y54.862 E0.13565
G1 X60.28 Y54.851 E0.15119
G1 X61.266 Y54.851 E0.18399
G1 X62.483 Y54.868 E0.22447
G1 X65.241 Y54.868 E0.3162
G1 X65.878 Y54.854 E0.33739
G1 X67.235 Y54.851 E0.38252
G1 X68.018 Y54.862 E0.40857
G1 X68.661 Y54.911 E0.43002
G1 X69.293 Y55.039 E0.45147
G1 X69.904 Y55.244 E0.4729
G1 X70.485 Y55.524 E0.49435
G1 X71.027 Y55.873 E0.51579
G1 X71.521 Y56.287 E0.53723
G1 X71.961 Y56.758 E0.55867
G1 X72.338 Y57.281 E0.58011
G1 X72.681 Y57.916 E0.60412
G1 X73.202 Y59.066 E0.64611
G1 X74.358 Y61.524 E0.73645
G1 X75.562 Y63.908 E0.82528
G1 X76.84 Y66.269 E0.91457
G1 X78.18 Y68.587 E1.00363
G1 X79.588 Y70.868 E1.09278
G1 X81.067 Y73.123 E1.18248
G1 X82.606 Y75.327 E1.27188
G1 X84.193 Y77.469 E1.36055
G1 X85.848 Y79.577 E1.44969
G1 X87.563 Y81.636 E1.53882
G1 X89.34 Y83.652 E1.6282
G1 X91.154 Y85.599 E1.71671
G1 X93.057 Y87.525 E1.80676
G1 X94.976 Y89.363 E1.89514
G1 X96.986 Y91.18 E1.98526
G1 X99.002 Y92.902 E2.07344
G1 X101.115 Y94.607 E2.16375
G1 X103.246 Y96.228 E2.2528
G1 X105.411 Y97.781 E2.34142
G1 X107.632 Y99.28 E2.43054
G1 X109.887 Y100.711 E2.51937
G1 X112.208 Y102.094 E2.60923
G1 X114.582 Y103.42 E2.69967
G1 X115.124 Y103.769 E2.72111
G1 X115.619 Y104.182 E2.74256
G1 X115.999 Y104.581 E2.76088
G1 X116.58 Y105.261 E2.79063
G1 X117.32 Y106.15 E2.8291
G1 X119.103 Y108.172 E2.91877
G1 X120.904 Y110.104 E3.00661
G1 X122.806 Y112.028 E3.0966
G1 X124.727 Y113.867 E3.18505
G1 X126.734 Y115.681 E3.27503
G1 X128.79 Y117.437 E3.36496
G1 X130.831 Y119.082 E3.45214
G1 X132.998 Y120.731 E3.54271
G1 X135.155 Y122.278 E3.631
G1 X137.383 Y123.781 E3.72039
G1 X139.663 Y125.228 E3.8102
G1 X141.947 Y126.587 E3.8986
G1 X144.288 Y127.893 E3.98776
G1 X146.702 Y129.153 E4.07833
G1 X149.066 Y130.301 E4.16574
G1 X151.538 Y131.417 E4.25595
G1 X154.004 Y132.447 E4.34483
G1 X156.54 Y133.423 E4.43521
G1 X159.033 Y134.302 E4.52313
G1 X161.537 Y135.11 E4.61064
G1 X162.137 Y135.346 E4.63209
G1 X162.704 Y135.654 E4.65355
G1 X163.228 Y136.029 E4.67498
G1 X163.701 Y136.467 E4.69642
G1 X164.117 Y136.96 E4.71788
G1 X164.468 Y137.5 E4.7393
G1 X164.75 Y138.08 E4.76075
G1 X164.958 Y138.69 E4.78218
G1 X165.088 Y139.322 E4.80364
G1 X165.139 Y139.913 E4.82337
G1 X165.15 Y140.38 E4.83891
G1 X165.15 Y141.395 E4.87267
G1 X165.14 Y142.121 E4.89682
G1 X165.127 Y142.415 E4.90661
G1 X165.065 Y143.295 E4.93595
G1 X164.908 Y146.057 E5.02796
G1 X164.832 Y148.726 E5.11677
G1 X164.832 Y151.403 E5.20581
G1 X164.908 Y154.083 E5.29498
G1 X165.061 Y156.797 E5.38539
G1 X165.137 Y157.895 E5.422
G1 X165.149 Y158.379 E5.4381
G1 X165.15 Y159.39 E5.47173
G1 X165.14 Y160.112 E5.49574
G1 X165.091 Y160.755 E5.51719
G1 X164.963 Y161.387 E5.53864
G1 X164.757 Y161.998 E5.56008
G1 X164.478 Y162.579 E5.58152
G1 X164.129 Y163.121 E5.60296
G1 X163.716 Y163.616 E5.6244
G1 X163.244 Y164.055 E5.64584
G1 X162.722 Y164.433 E5.66728
G1 X162.157 Y164.744 E5.68873
G1 X161.558 Y164.982 E5.71017
G1 X160.934 Y165.144 E5.73161
G1 X160.113 Y165.237 E5.75909
G1 X159.639 Y165.25 E5.77486
G1 X60.59 Y165.25 E9.06924
G1 X59.892 Y165.241 E9.09246
G1 X59.249 Y165.192 E9.11391
G1 X58.617 Y165.065 E9.13535
G1 X58.006 Y164.86 E9.15679
G1 X57.425 Y164.582 E9.17821
G1 X56.882 Y164.233 E9.19968
G1 X56.387 Y163.82 E9.22112
G1 X55.947 Y163.349 E9.24256
G1 X55.568 Y162.827 E9.26401
G1 X55.257 Y162.263 E9.28543
G1 X55.019 Y161.664 E9.30687
G1 X54.856 Y161.04 E9.32832
G1 X54.761 Y160.181 E9.35707
G1 X54.75 Y159.708 E9.3728
G1 X54.75 Y60.655 E12.66732
G1 X54.759 Y59.99 E12.68944
G1 X54.808 Y59.347 E12.71089
G1 X54.936 Y58.715 E12.73234
G1 X55.141 Y58.104 E12.75377
G1 X55.42 Y57.523 E12.77521
G1 X55.769 Y56.98 E12.79668
G1 X56.182 Y56.486 E12.81809
G0 F6000 X55.875 Y56.229
G1 F1200 X56.38 Y55.754 E12.84115
G1 X56.983 Y55.318 E12.8659
G1 X57.592 Y54.985 E12.88899
G1 X58.191 Y54.747 E12.91042
G1 X58.919 Y54.558 E12.93544
G1 X59.769 Y54.464 E12.96388
G1 X60.271 Y54.451 E12.98059
G1 X61.272 Y54.451 E13.01388
G1 X62.489 Y54.468 E13.05436
G1 X65.232 Y54.468 E13.14559
G1 X65.877 Y54.454 E13.16705
G1 X67.241 Y54.451 E13.21242
G1 X68.048 Y54.463 E13.23926
G1 X68.691 Y54.512 E13.26071
G1 X69.372 Y54.647 E13.2838
G1 X70.078 Y54.884 E13.30857
G1 X70.702 Y55.188 E13.33166
G1 X71.284 Y55.566 E13.35474
G1 X71.778 Y55.98 E13.37618
G1 X72.253 Y56.485 E13.39924
G1 X72.69 Y57.091 E13.42408
G1 X73.033 Y57.726 E13.44809
G1 X73.564 Y58.896 E13.49082
G1 X74.715 Y61.344 E13.5808
G1 X75.914 Y63.718 E13.66925
G1 X77.192 Y66.079 E13.75855
G1 X78.52 Y68.377 E13.84682
G1 X79.922 Y70.649 E13.93562
G1 X81.395 Y72.894 E14.02493
G1 X82.934 Y75.098 E14.11434
G1 X84.508 Y77.222 E14.20226
G1 X86.163 Y79.33 E14.2914
G1 X87.863 Y81.372 E14.37978
G1 X89.633 Y83.379 E14.46878
G1 X91.447 Y85.326 E14.55729
G1 X93.334 Y87.236 E14.64659
G1 X95.253 Y89.074 E14.73497
G1 X97.246 Y90.876 E14.82433
G1 X99.262 Y92.598 E14.91252
G1 X101.357 Y94.289 E15.00206
G1 X103.479 Y95.903 E15.09074
G1 X105.635 Y97.449 E15.17898
G1 X107.856 Y98.948 E15.2681
G1 X110.092 Y100.367 E15.35618
G1 X112.413 Y101.75 E15.44604
G1 X114.799 Y103.084 E15.53696
G1 X115.341 Y103.433 E15.5584
G1 X115.909 Y103.906 E15.58299
G1 X116.303 Y104.321 E15.60202
G1 X116.887 Y105.005 E15.63193
G1 X117.62 Y105.885 E15.67003
G1 X119.396 Y107.899 E15.75934
G1 X121.196 Y109.832 E15.84719
G1 X123.083 Y111.739 E15.93642
G1 X125.004 Y113.578 E16.02487
G1 X126.994 Y115.377 E16.11409
G1 X129.05 Y117.133 E16.20402
G1 X131.073 Y118.764 E16.29045
G1 X133.231 Y120.406 E16.38064
G1 X135.379 Y121.946 E16.46855
G1 X137.607 Y123.449 E16.55794
G1 X139.868 Y124.884 E16.64701
G1 X142.152 Y126.243 E16.7354
G1 X144.473 Y127.538 E16.8238
G1 X146.877 Y128.793 E16.914
G1 X149.231 Y129.936 E17.00103
G1 X151.703 Y131.053 E17.09126
G1 X154.148 Y132.074 E17.17938
G1 X156.68 Y133.049 E17.26963
G1 X159.156 Y133.921 E17.35694
G1 X161.66 Y134.729 E17.44445
G1 X162.328 Y134.995 E17.46836
G1 X162.937 Y135.329 E17.49147
G1 X163.461 Y135.704 E17.5129
G1 X164.007 Y136.209 E17.53763
G1 X164.423 Y136.702 E17.55909
G1 X164.828 Y137.325 E17.5838
G1 X165.129 Y137.951 E17.60691
G1 X165.35 Y138.609 E17.62999
G1 X165.487 Y139.288 E17.65303
G1 X165.538 Y139.879 E17.67276
G1 X165.55 Y140.371 E17.68913
G1 X165.55 Y141.401 E17.72339
G1 X165.54 Y142.139 E17.74794
G1 X165.526 Y142.443 E17.75806
G1 X165.464 Y143.323 E17.7874
G1 X165.308 Y146.068 E17.87885
G1 X165.232 Y148.737 E17.96765
G1 X165.232 Y151.403 E18.05632
G1 X165.308 Y154.072 E18.14513
G1 X165.46 Y156.769 E18.23498
G1 X165.537 Y157.885 E18.27218
G1 X165.549 Y158.379 E18.28862
G1 X165.55 Y159.396 E18.32244
G1 X165.539 Y160.142 E18.34726
G1 X165.49 Y160.785 E18.36871
G1 X165.342 Y161.515 E18.39348
G1 X165.118 Y162.171 E18.41654
G1 X164.839 Y162.752 E18.43797
G1 X164.465 Y163.338 E18.4611
G1 X163.988 Y163.909 E18.48584
G1 X163.479 Y164.379 E18.50888
G1 X162.957 Y164.757 E18.53032
G1 X162.305 Y165.116 E18.55508
G1 X161.706 Y165.354 E18.57651
G1 X161.035 Y165.531 E18.59959
G1 X160.124 Y165.637 E18.6301
G1 X159.65 Y165.65 E18.64587
G1 X60.585 Y165.65 E21.94079
G1 X59.862 Y165.64 E21.96483
G1 X59.219 Y165.591 E21.98628
G1 X58.538 Y165.457 E22.00937
G1 X57.833 Y165.221 E22.03409
G1 X57.252 Y164.943 E22.05552
G1 X56.626 Y164.54 E22.08028
G1 X56.095 Y164.093 E22.10337
G1 X55.623 Y163.584 E22.12645
G1 X55.244 Y163.062 E22.14791
G1 X54.885 Y162.411 E22.17263
G1 X54.647 Y161.812 E22.19407
G1 X54.458 Y161.084 E22.21909
G1 X54.363 Y160.225 E22.24783
G1 X54.35 Y159.717 E22.26474
G1 X54.35 Y60.65 E25.55972
G1 X54.36 Y59.96 E25.58267
G1 X54.409 Y59.317 E25.60412
G1 X54.544 Y58.636 E25.62721
G1 X54.78 Y57.931 E25.65194
G1 X55.059 Y57.35 E25.67337
G1 X55.462 Y56.723 E25.69816
G1 X55.875 Y56.229 E25.71958
G1 F1500 E19.21958
;MESH:BLB.stl
G0 F6000 X72.825 Y98.484
G0 X74.893 Y104.86
;TYPE:WALL-OUTER
G1 F1500 E25.71958
G1 F1200 X74.267 Y104.994 E25.74087
G1 X73.62 Y104.992 E25.76239
G1 X73.008 Y104.862 E25.7832
G1 X72.401 Y104.589 E25.80534
G1 X71.89 Y104.209 E25.82652
G1 X71.489 Y103.765 E25.84642
G1 X71.149 Y103.18 E25.86892
G1 X70.954 Y102.577 E25.89
G1 X70.891 Y101.929 E25.91165
G1 X70.961 Y101.295 E25.93287
G1 X71.149 Y100.721 E25.95296
G1 X71.487 Y100.135 E25.97546
G1 X71.922 Y99.662 E25.99683
G1 X72.399 Y99.313 E26.01649
G1 X72.986 Y99.048 E26.03791
G1 X73.616 Y98.908 E26.05938
G1 X74.291 Y98.91 E26.08183
G1 X74.916 Y99.047 E26.10311
G1 X75.499 Y99.311 E26.12439
G1 X76.01 Y99.691 E26.14557
G1 X76.411 Y100.135 E26.16547
G1 X76.751 Y100.72 E26.18798
G1 X76.948 Y101.337 E26.20952
G1 X77.009 Y101.971 E26.2307
G1 X76.946 Y102.577 E26.25097
G1 X76.751 Y103.179 E26.27201
G1 X76.413 Y103.765 E26.29451
G1 X75.978 Y104.238 E26.31589
G1 X75.501 Y104.587 E26.33555
G1 X74.893 Y104.86 E26.35771
G1 F1500 E19.85771
G0 F6000 X75.659 Y105.069
G0 X76.384 Y104.66
G0 X114.489 Y133.276
G0 X117.709 Y137.09
G1 F1500 E26.35771
G1 F1200 X117.084 Y136.953 E26.37899
G1 X116.501 Y136.689 E26.40028
G1 X115.99 Y136.309 E26.42146
G1 X115.589 Y135.865 E26.44136
G1 X115.249 Y135.28 E26.46386
G1 X115.055 Y134.682 E26.48477
G1 X114.991 Y134.071 E26.50521
G1 X115.055 Y133.418 E26.52703
G1 X115.251 Y132.815 E26.54812
G1 X115.587 Y132.235 E26.57041
G1 X116.022 Y131.762 E26.59179
G1 X116.499 Y131.413 E26.61144
G1 X117.086 Y131.148 E26.63287
G1 X117.716 Y131.008 E26.65433
G1 X118.391 Y131.01 E26.67678
G1 X119.016 Y131.147 E26.69806
G1 X119.599 Y131.411 E26.71935
G1 X120.11 Y131.791 E26.74053
G1 X120.511 Y132.235 E26.76043
G1 X120.851 Y132.82 E26.78293
G1 X121.048 Y133.437 E26.80447
G1 X121.109 Y134.071 E26.82566
G1 X121.046 Y134.677 E26.84592
G1 X120.851 Y135.279 E26.86697
G1 X120.513 Y135.865 E26.88947
G1 X120.078 Y136.338 E26.91084
G1 X119.601 Y136.687 E26.9305
G1 X119.014 Y136.952 E26.95192
G1 X118.384 Y137.092 E26.97339
G1 X117.709 Y137.09 E26.99584
G1 F1500 E20.49584
G0 F6000 X117.605 Y137.581
G0 X116.924 Y137.517
G0 X116.924 Y141.25
G0 X109.929 Y158.211
G1 F1500 E26.99584
G1 F1200 X109.85 Y158.107 E27.00018
G1 X109.852 Y142.017 E27.53534
G1 X109.902 Y141.914 E27.53915
G1 X109.995 Y141.85 E27.5429
G1 X159.75 Y141.85 E29.19776
G1 X159.75 Y140.25 E29.25098
G1 X124.05 Y140.25 E30.43836
G1 X123.929 Y140.211 E30.44259
G1 X123.85 Y140.107 E30.44693
G1 X123.85 Y128.25 E30.8413
G1 X112.013 Y128.247 E31.235
G1 X111.927 Y128.209 E31.23813
G1 X111.851 Y128.075 E31.24325
G1 X111.85 Y108.15 E31.90596
G1 X79.917 Y108.148 E32.96805
G1 X79.801 Y108.085 E32.97245
G1 X79.751 Y107.975 E32.97646
G1 X79.75 Y96.15 E33.36977
G1 X67.891 Y96.15 E33.7642
G1 X67.789 Y96.07 E33.76851
G1 X67.752 Y95.985 E33.77159
G1 X67.75 Y60.251 E34.96011
G1 X66.15 Y60.251 E35.01333
G1 X66.15 Y110.007 E36.66822
G1 X66.07 Y110.111 E36.67258
G1 X65.977 Y110.149 E36.67592
G1 X61.891 Y110.15 E36.81182
G1 X61.789 Y110.07 E36.81614
G1 X61.752 Y109.985 E36.81922
G1 X61.75 Y60.251 E38.47338
G1 X60.15 Y60.251 E38.52659
G1 X60.15 Y159.85 E41.83927
G1 X159.75 Y159.85 E45.15198
G1 X159.749 Y158.25 E45.2052
G1 X110.05 Y158.25 E46.85819
G1 X109.929 Y158.211 E46.86242
G0 F6000 X109.689 Y158.531
;TYPE:WALL-INNER
G1 F1200 X109.496 Y158.281 E46.87292
G1 X109.45 Y158.05 E46.88076
G1 X109.45 Y141.93 E47.41691
G1 X109.583 Y141.672 E47.42657
G1 X109.829 Y141.491 E47.43672
G1 X110.031 Y141.45 E47.44358
G1 X159.35 Y141.45 E49.08394
G1 X159.35 Y140.65 E49.11054
G1 X124.05 Y140.65 E50.28463
G1 X123.689 Y140.531 E50.29727
G1 X123.496 Y140.281 E50.30777
G1 X123.45 Y140.05 E50.31561
G1 X123.45 Y128.65 E50.69477
G1 X112.031 Y128.65 E51.07457
G1 X111.817 Y128.604 E51.08185
G1 X111.682 Y128.525 E51.08705
G1 X111.496 Y128.282 E51.09723
G1 X111.45 Y128.076 E51.10425
G1 X111.45 Y108.55 E51.75369
G1 X79.902 Y108.549 E52.80298
G1 X79.727 Y108.508 E52.80896
G1 X79.504 Y108.353 E52.81799
G1 X79.385 Y108.155 E52.82567
G1 X79.354 Y108.025 E52.83012
G1 X79.35 Y96.55 E53.21178
G1 X67.95 Y96.55 E53.59095
G1 X67.718 Y96.504 E53.59881
G1 X67.469 Y96.31 E53.60931
G1 X67.35 Y96.036 E53.61925
G1 X67.35 Y60.651 E54.79616
G1 X66.55 Y60.651 E54.82276
G1 X66.55 Y109.977 E56.46335
G1 X66.509 Y110.17 E56.46992
G1 X66.395 Y110.354 E56.47712
G1 X66.202 Y110.495 E56.48507
G1 X65.95 Y110.55 E56.49364
G1 X61.95 Y110.55 E56.62668
G1 X61.718 Y110.504 E56.63455
G1 X61.469 Y110.31 E56.64505
G1 X61.35 Y110.036 E56.65499
G1 X61.35 Y60.651 E58.29754
G1 X60.55 Y60.651 E58.32415
G1 X60.55 Y159.45 E61.61021
G1 X159.35 Y159.45 E64.89631
G1 X159.349 Y158.65 E64.92292
G1 X110.05 Y158.65 E66.56261
G1 X109.689 Y158.531 E66.57526
G1 F1500 E60.07526
G0 F6000 X109.689 Y158.55
G0 X109.622 Y141.622
G0 X117.662 Y141.25
G0 X117.667 Y137.675
G0 X117.683 Y137.494
G1 F1500 E66.57526
G1 F1200 X116.979 Y137.345 E66.59919
G1 X116.318 Y137.051 E66.62325
G1 X115.733 Y136.621 E66.6474
G1 X115.252 Y136.089 E66.67125
G1 X114.887 Y135.461 E66.69541
G1 X114.663 Y134.761 E66.71986
G1 X114.586 Y134.049 E66.74368
G1 X114.663 Y133.339 E66.76743
G1 X114.887 Y132.641 E66.79181
G1 X115.247 Y132.015 E66.81583
G1 X115.737 Y131.475 E66.84008
G1 X116.314 Y131.053 E66.86386
G1 X116.979 Y130.757 E66.88807
G1 X117.684 Y130.606 E66.91205
G1 X118.418 Y130.606 E66.93646
G1 X119.123 Y130.757 E66.96044
G1 X119.782 Y131.049 E66.98442
G1 X120.367 Y131.479 E67.00856
G1 X120.848 Y132.011 E67.03242
G1 X121.212 Y132.638 E67.05653
G1 X121.44 Y133.335 E67.08092
G1 X121.514 Y134.051 E67.10486
G1 X121.437 Y134.774 E67.12905
G1 X121.211 Y135.464 E67.1532
G1 X120.85 Y136.089 E67.1772
G1 X120.362 Y136.626 E67.20134
G1 X119.8 Y137.035 E67.22446
G1 X119.123 Y137.342 E67.24918
G1 X118.416 Y137.494 E67.27323
G1 X117.683 Y137.494 E67.29761
G1 F1500 E60.79761
G0 F6000 X117.662 Y137.593
G0 X116.398 Y136.908
G0 X115.843 Y136.502
G0 X115.381 Y135.99
G0 X114.405 Y134.056
G0 X76.384 Y104.66
G0 X75.013 Y105.242
G1 F1500 E67.29761
G1 F1200 X74.309 Y105.394 E67.32157
G1 X73.588 Y105.394 E67.34555
G1 X72.892 Y105.245 E67.36922
G1 X72.218 Y104.951 E67.39368
G1 X71.631 Y104.519 E67.41792
G1 X71.152 Y103.989 E67.44168
G1 X70.788 Y103.362 E67.46579
G1 X70.563 Y102.674 E67.48987
G1 X70.486 Y101.95 E67.51408
G1 X70.562 Y101.23 E67.53816
G1 X70.787 Y100.541 E67.56227
G1 X71.147 Y99.915 E67.58629
G1 X71.637 Y99.375 E67.61054
G1 X72.214 Y98.953 E67.63432
G1 X72.879 Y98.657 E67.65853
G1 X73.584 Y98.506 E67.68251
G1 X74.318 Y98.506 E67.70692
G1 X75.023 Y98.657 E67.7309
G1 X75.682 Y98.949 E67.75488
G1 X76.267 Y99.379 E67.77902
G1 X76.748 Y99.911 E67.80288
G1 X77.112 Y100.538 E67.82699
G1 X77.34 Y101.235 E67.85138
G1 X77.414 Y101.951 E67.87532
G1 X77.337 Y102.674 E67.89951
G1 X77.111 Y103.364 E67.92366
G1 X76.75 Y103.989 E67.94766
G1 X76.263 Y104.525 E67.97175
G1 X75.685 Y104.948 E67.99557
G1 X75.013 Y105.242 E68.01997
G0 F6000 X75.096 Y105.593
;TYPE:SKIN
G1 F1200 X74.346 Y105.754 E68.04548
G1 X73.542 Y105.752 E68.07222
G1 X72.779 Y105.591 E68.09816
G1 X72.01 Y105.247 E68.12618
G1 X71.381 Y104.779 E68.15225
G1 X70.848 Y104.183 E68.17885
G1 X70.451 Y103.49 E68.20541
G1 X70.209 Y102.743 E68.23153
G1 X70.126 Y101.929 E68.25874
G1 X70.214 Y101.133 E68.28538
G1 X70.464 Y100.377 E68.31186
G1 X70.869 Y99.684 E68.33856
G1 X71.412 Y99.093 E68.36525
G1 X72.013 Y98.653 E68.39003
