;FLAVOR:Marlin
;TIME:19876
;Filament used: 16.1215m
;Layer height: 0.2
;MINX:54.35
;MINY:54.35
;MINZ:0.2
;MAXX:165.55
;MAXY:165.549
;MAXZ:62
;Generated with Cura_SteamEngine 5.3.0
M82 ;absolute extrusion mode
; Ender 3 Custom Start G-code
G92 E0 ; Reset Extruder
G28 ; Home all axes
M104 S180.0 ; Start heating up the nozzle most of the way
M190 S65.0 ; Start heating the bed, wait until target temperature reached
M109 S200 ; Finish heating the nozzle
G1 Z2.0 F3000 ; Move Z Axis up little to prevent scratching of Heat Bed
G1 X0.1 Y20 Z0.3 F5000.0 ; Move to start position
G1 X0.1 Y200.0 Z0.3 F1500.0 E15 ; Draw the first line
G1 X0.4 Y200.0 Z0.3 F5000.0 ; Move to side a little
G1 X0.4 Y20 Z0.3 F1500.0 E30 ; Draw the second line
G92 E0 ; Reset Extruder
G1 Z2.0 F3000 ; Move Z Axis up little to prevent scratching of Heat Bed
G1 X5 Y20 Z0.3 F5000.0 ; Move over to prevent blob squish
G92 E0
G92 E0
G1 F1500 E-6.5
;LAYER_COUNT:310
;LAYER:0
M107
G0 F6000 X56.187 Y56.381 Z0.2
;TYPE:SKIRT
G1 F1500 E0
G1 F1200 X56.658 Y55.942 E0.02142
G1 X57.181 Y55.564 E0.04288
G1 X57.746 Y55.254 E0.06431
G1 X58.345 Y55.016 E0.08575
G1 X58.969 Y54.854 E0.10719
G1 X59.814 Y54.761 E0.13547
G1 X60.28 Y54.75 E0.15097
G1 X109.343 Y54.75 E1.78281
G1 X110.119 Y54.761 E1.80863
G1 X110.762 Y54.81 E1.83007
G1 X111.431 Y54.948 E1.85279
G1 X112.755 Y55.314 E1.89848
G1 X115.428 Y56.012 E1.99037
G1 X118.054 Y56.617 E2.08
G1 X120.637 Y57.138 E2.16764
G1 X123.311 Y57.597 E2.25788
G1 X125.944 Y57.974 E2.34634
G1 X128.594 Y58.277 E2.43506
G1 X131.301 Y58.509 E2.52542
G1 X133.937 Y58.66 E2.61324
G1 X136.659 Y58.739 E2.70381
G1 X138.086 Y58.75 E2.75127
G1 X159.324 Y58.751 E3.45765
G1 X160.022 Y58.762 E3.48087
G1 X160.665 Y58.812 E3.50232
G1 X161.296 Y58.941 E3.52374
G1 X161.907 Y59.147 E3.54519
G1 X162.487 Y59.428 E3.56663
G1 X163.029 Y59.778 E3.58808
G1 X163.523 Y60.192 E3.60952
G1 X163.962 Y60.664 E3.63096
G1 X164.339 Y61.187 E3.6524
G1 X164.648 Y61.753 E3.67385
G1 X164.885 Y62.352 E3.69528
G1 X165.046 Y62.977 E3.71674
G1 X165.138 Y63.817 E3.74485
G1 X165.149 Y64.28 E3.76025
G1 X165.15 Y65.29 E3.79385
G1 X165.14 Y66.016 E3.818
G1 X165.091 Y66.658 E3.83941
G1 X164.963 Y67.29 E3.86086
G1 X164.758 Y67.901 E3.88229
G1 X164.478 Y68.482 E3.90374
G1 X164.129 Y69.025 E3.92521
G1 X163.716 Y69.519 E3.94663
G1 X163.245 Y69.959 E3.96807
G1 X162.722 Y70.337 E3.98953
G1 X162.157 Y70.648 E4.01098
G1 X159.837 Y71.742 E4.09629
G1 X157.428 Y72.959 E4.18606
G1 X155.079 Y74.231 E4.27491
G1 X152.783 Y75.56 E4.36314
G1 X150.463 Y76.991 E4.4538
G1 X148.255 Y78.44 E4.54164
G1 X146.023 Y79.999 E4.6322
G1 X143.897 Y81.574 E4.7202
G1 X141.773 Y83.241 E4.81
G1 X139.736 Y84.937 E4.89816
G1 X137.69 Y86.742 E4.98891
G1 X135.757 Y88.545 E5.07683
G1 X133.841 Y90.434 E5.16632
G1 X131.993 Y92.367 E5.25526
G1 X130.191 Y94.36 E5.34463
G1 X128.448 Y96.4 E5.43387
G1 X126.75 Y98.505 E5.52382
G1 X125.136 Y100.628 E5.61252
G1 X123.573 Y102.808 E5.70174
G1 X122.078 Y105.023 E5.79062
G1 X120.637 Y107.293 E5.88005
G1 X119.264 Y109.599 E5.96932
G1 X117.959 Y111.938 E6.0584
G1 X116.651 Y114.448 E6.15254
G1 X116.319 Y115 E6.17396
G1 X115.92 Y115.507 E6.19542
G1 X115.462 Y115.96 E6.21685
G1 X114.951 Y116.354 E6.23831
G1 X114.568 Y116.589 E6.25325
G1 X113.378 Y117.251 E6.29855
G1 X111.008 Y118.618 E6.38954
G1 X108.736 Y120.017 E6.47829
G1 X106.491 Y121.487 E6.56754
G1 X104.286 Y123.023 E6.65692
G1 X102.125 Y124.619 E6.74627
G1 X100.016 Y126.271 E6.83537
G1 X97.971 Y127.969 E6.92378
G1 X95.943 Y129.754 E7.01364
G1 X93.972 Y131.588 E7.10319
G1 X92.088 Y133.443 E7.19112
G1 X90.221 Y135.39 E7.28084
G1 X88.416 Y137.381 E7.37023
G1 X86.668 Y139.423 E7.45963
G1 X84.991 Y141.496 E7.54831
G1 X83.363 Y143.633 E7.63767
G1 X81.794 Y145.815 E7.72705
G1 X80.281 Y148.051 E7.81685
G1 X78.872 Y150.266 E7.90416
G1 X77.468 Y152.616 E7.99521
G1 X76.175 Y154.928 E8.08332
G1 X74.917 Y157.332 E8.17356
G1 X73.749 Y159.729 E8.26225
G1 X72.679 Y162.088 E8.3484
G1 X72.377 Y162.658 E8.36986
G1 X72.007 Y163.185 E8.39127
G1 X71.574 Y163.663 E8.41272
G1 X71.085 Y164.084 E8.43419
G1 X70.549 Y164.441 E8.45561
G1 X69.972 Y164.728 E8.47704
G1 X69.364 Y164.942 E8.49848
G1 X68.734 Y165.08 E8.51993
G1 X68.11 Y165.137 E8.54077
G1 X67.663 Y165.149 E8.55564
G1 X66.59 Y165.148 E8.59133
G1 X65.452 Y165.132 E8.62918
G1 X62.692 Y165.132 E8.72098
G1 X62.044 Y165.146 E8.74254
G1 X60.59 Y165.149 E8.7909
G1 X59.892 Y165.14 E8.81412
G1 X59.249 Y165.091 E8.83557
G1 X58.617 Y164.964 E8.85701
G1 X58.006 Y164.759 E8.87844
G1 X57.425 Y164.481 E8.89986
G1 X56.882 Y164.132 E8.92133
G1 X56.387 Y163.719 E8.94277
G1 X55.947 Y163.248 E8.96421
G1 X55.568 Y162.726 E8.98567
G1 X55.257 Y162.162 E9.00709
G1 X55.019 Y161.563 E9.02853
G1 X54.856 Y160.939 E9.04998
G1 X54.761 Y160.08 E9.07872
G1 X54.75 Y159.607 E9.09446
G1 X54.751 Y60.573 E12.38834
G1 X54.761 Y59.884 E12.41126
G1 X54.81 Y59.241 E12.43271
G1 X54.938 Y58.609 E12.45416
G1 X55.144 Y57.998 E12.4756
G1 X55.424 Y57.417 E12.49705
G1 X55.773 Y56.875 E12.51849
G1 X56.187 Y56.381 E12.53993
G0 F6000 X55.914 Y56.088
G1 F1200 X56.385 Y55.649 E12.56135
G1 X56.989 Y55.213 E12.58612
G1 X57.598 Y54.882 E12.60918
G1 X58.197 Y54.644 E12.63062
G1 X58.925 Y54.456 E12.65562
G1 X59.77 Y54.363 E12.6839
G1 X60.271 Y54.35 E12.70057
G1 X109.349 Y54.35 E14.33291
G1 X110.149 Y54.362 E14.35952
G1 X110.843 Y54.418 E14.38268
G1 X111.538 Y54.562 E14.40628
G1 X112.862 Y54.929 E14.45198
G1 X115.518 Y55.622 E14.54328
G1 X118.144 Y56.227 E14.63291
G1 X120.712 Y56.745 E14.72004
G1 X123.368 Y57.201 E14.80967
G1 X126.001 Y57.578 E14.89814
G1 X128.628 Y57.878 E14.98608
G1 X131.335 Y58.111 E15.07645
G1 X133.949 Y58.26 E15.16353
G1 X136.671 Y58.339 E15.2541
G1 X138.089 Y58.35 E15.30127
G1 X159.33 Y58.351 E16.00774
G1 X160.053 Y58.363 E16.03179
G1 X160.696 Y58.413 E16.05325
G1 X161.376 Y58.549 E16.07631
G1 X162.035 Y58.768 E16.09941
G1 X162.704 Y59.092 E16.12413
G1 X163.286 Y59.471 E16.14723
G1 X163.78 Y59.885 E16.16867
G1 X164.255 Y60.392 E16.19178
G1 X164.69 Y60.995 E16.21651
G1 X164.999 Y61.561 E16.23795
G1 X165.257 Y62.205 E16.26103
G1 X165.444 Y62.933 E16.28603
G1 X165.536 Y63.773 E16.31413
G1 X165.549 Y64.28 E16.331
G1 X165.55 Y65.296 E16.36479
G1 X165.539 Y66.046 E16.38974
G1 X165.49 Y66.688 E16.41116
G1 X165.355 Y67.369 E16.43425
G1 X165.118 Y68.075 E16.45902
G1 X164.838 Y68.656 E16.48047
G1 X164.436 Y69.282 E16.50521
G1 X164.023 Y69.776 E16.52663
G1 X163.518 Y70.251 E16.54969
G1 X162.915 Y70.687 E16.57444
G1 X162.328 Y71.01 E16.59672
G1 X160.008 Y72.104 E16.68203
G1 X157.618 Y73.311 E16.77109
G1 X155.269 Y74.583 E16.85993
G1 X152.983 Y75.906 E16.94778
G1 X150.673 Y77.331 E17.03806
G1 X148.484 Y78.768 E17.12515
G1 X146.252 Y80.327 E17.2157
G1 X144.144 Y81.889 E17.30296
G1 X142.02 Y83.556 E17.39277
G1 X140.001 Y85.237 E17.48015
G1 X137.955 Y87.042 E17.5709
G1 X136.03 Y88.838 E17.65846
G1 X134.122 Y90.719 E17.74757
G1 X132.29 Y92.635 E17.83574
G1 X130.488 Y94.628 E17.92511
G1 X128.752 Y96.66 E18.014
G1 X127.061 Y98.756 E18.10357
G1 X125.461 Y100.861 E18.19151
G1 X123.905 Y103.032 E18.28035
G1 X122.41 Y105.247 E18.36923
G1 X120.981 Y107.498 E18.45791
G1 X119.608 Y109.804 E18.54718
G1 X118.314 Y112.123 E18.6355
G1 X116.994 Y114.654 E18.73045
G1 X116.662 Y115.206 E18.75187
G1 X116.201 Y115.791 E18.77664
G1 X115.706 Y116.277 E18.79971
G1 X115.195 Y116.671 E18.82118
G1 X114.762 Y116.939 E18.83811
G1 X113.572 Y117.601 E18.8834
G1 X111.218 Y118.959 E18.97379
G1 X108.946 Y120.358 E19.06254
G1 X106.71 Y121.822 E19.15143
G1 X104.524 Y123.345 E19.24004
G1 X102.363 Y124.941 E19.32939
G1 X100.272 Y126.579 E19.41774
G1 X98.227 Y128.276 E19.50613
G1 X96.207 Y130.054 E19.59563
G1 X94.253 Y131.873 E19.68442
G1 X92.369 Y133.728 E19.77236
G1 X90.51 Y135.667 E19.8617
G1 X88.712 Y137.65 E19.95073
G1 X86.979 Y139.675 E20.03938
G1 X85.302 Y141.748 E20.12807
G1 X83.688 Y143.867 E20.21666
G1 X82.118 Y146.049 E20.30607
G1 X80.619 Y148.266 E20.39508
G1 X79.209 Y150.481 E20.48241
G1 X77.811 Y152.821 E20.57307
G1 X76.524 Y155.123 E20.66079
G1 X75.277 Y157.507 E20.75027
G1 X74.109 Y159.904 E20.83896
G1 X73.032 Y162.275 E20.92557
G1 X72.704 Y162.888 E20.9487
G1 X72.303 Y163.454 E20.97177
G1 X71.835 Y163.966 E20.99484
G1 X71.307 Y164.417 E21.01794
G1 X70.771 Y164.774 E21.03935
G1 X70.15 Y165.086 E21.06247
G1 X69.45 Y165.333 E21.08716
G1 X68.82 Y165.471 E21.10861
G1 X68.121 Y165.537 E21.13196
G1 X67.674 Y165.549 E21.14683
G1 X66.584 Y165.548 E21.18309
G1 X65.446 Y165.532 E21.22094
G1 X62.701 Y165.532 E21.31224
G1 X62.045 Y165.546 E21.33406
G1 X60.585 Y165.549 E21.38262
G1 X59.862 Y165.539 E21.40667
G1 X59.219 Y165.49 E21.42812
G1 X58.538 Y165.356 E21.45121
G1 X57.833 Y165.12 E21.47593
G1 X57.252 Y164.842 E21.49736
G1 X56.626 Y164.439 E21.52212
G1 X56.095 Y163.992 E21.5452
G1 X55.623 Y163.483 E21.56829
G1 X55.244 Y162.961 E21.58975
G1 X54.885 Y162.31 E21.61447
G1 X54.647 Y161.711 E21.63591
G1 X54.458 Y160.983 E21.66093
G1 X54.363 Y160.124 E21.68967
G1 X54.35 Y159.607 E21.70687
G1 X54.351 Y60.567 E25.00096
G1 X54.362 Y59.854 E25.02467
G1 X54.411 Y59.211 E25.04612
G1 X54.559 Y58.481 E25.0709
G1 X54.765 Y57.87 E25.09234
G1 X55.088 Y57.2 E25.11708
G1 X55.466 Y56.618 E25.14016
G1 X55.914 Y56.088 E25.16324
G1 F1500 E18.66324
;MESH:FLB.stl
G0 F6000 X114.722 Y73.435
G0 X118.384 Y74.992
;TYPE:WALL-OUTER
G1 F1500 E25.16324
G1 F1200 X117.709 Y74.99 E25.1857
G1 X117.084 Y74.853 E25.20698
G1 X116.501 Y74.589 E25.22826
G1 X115.99 Y74.209 E25.24944
G1 X115.564 Y73.731 E25.27074
G1 X115.249 Y73.18 E25.29185
G1 X115.055 Y72.582 E25.31276
G1 X114.991 Y71.971 E25.33319
G1 X115.055 Y71.318 E25.35501
G1 X115.249 Y70.721 E25.37589
G1 X115.587 Y70.135 E25.39839
G1 X116.022 Y69.662 E25.41977
G1 X116.499 Y69.313 E25.43942
G1 X117.086 Y69.048 E25.46085
G1 X117.716 Y68.908 E25.48231
G1 X118.391 Y68.91 E25.50476
G1 X119.016 Y69.047 E25.52604
G1 X119.599 Y69.311 E25.54733
G1 X120.11 Y69.691 E25.56851
G1 X120.511 Y70.135 E25.58841
G1 X120.851 Y70.72 E25.61091
G1 X121.048 Y71.337 E25.63245
G1 X121.109 Y71.971 E25.65364
G1 X121.046 Y72.577 E25.6739
G1 X120.851 Y73.179 E25.69495
G1 X120.513 Y73.765 E25.71745
G1 X120.078 Y74.238 E25.73882
G1 X119.601 Y74.587 E25.75848
G1 X119.014 Y74.852 E25.7799
G1 X118.384 Y74.992 E25.80137
G1 F1500 E19.30137
G0 F6000 X118.446 Y75.284
G0 X116.929 Y75.419
G0 X77.518 Y117.298
G0 X74.914 Y120.952
G1 F1500 E25.80137
G1 F1200 X74.284 Y121.092 E25.82283
G1 X73.609 Y121.09 E25.84528
G1 X72.984 Y120.953 E25.86656
G1 X72.401 Y120.689 E25.88785
G1 X71.89 Y120.309 E25.90903
G1 X71.464 Y119.831 E25.93033
G1 X71.149 Y119.28 E25.95144
G1 X70.954 Y118.677 E25.97252
G1 X70.891 Y118.029 E25.99417
G1 X70.961 Y117.395 E26.01538
G1 X71.149 Y116.821 E26.03547
G1 X71.487 Y116.235 E26.05797
G1 X71.922 Y115.762 E26.07935
G1 X72.399 Y115.413 E26.09901
G1 X73.01 Y115.139 E26.12128
G1 X73.639 Y115.006 E26.14266
G1 X74.267 Y115.006 E26.16355
G1 X74.895 Y115.139 E26.1849
G1 X75.499 Y115.411 E26.20693
G1 X76.01 Y115.791 E26.22811
G1 X76.411 Y116.235 E26.24801
G1 X76.751 Y116.82 E26.27051
G1 X76.948 Y117.437 E26.29206
G1 X77.009 Y118.071 E26.31324
G1 X76.946 Y118.677 E26.3335
G1 X76.751 Y119.279 E26.35455
G1 X76.413 Y119.865 E26.37705
G1 X75.978 Y120.338 E26.39843
G1 X75.501 Y120.687 E26.41808
G1 X74.914 Y120.952 E26.4395
G1 F1500 E19.9395
G0 F6000 X75.034 Y121.226
G0 X74.334 Y121.675
G0 X74.334 Y123.63
G0 X67.75 Y159.749
G1 F1500 E26.4395
G1 F1200 X67.75 Y124.05 E27.62686
G1 X67.789 Y123.929 E27.63109
G1 X67.893 Y123.85 E27.63543
G1 X79.75 Y123.85 E28.0298
G1 X79.751 Y112.024 E28.42313
G1 X79.82 Y111.897 E28.42794
G1 X79.934 Y111.85 E28.43204
G1 X111.85 Y111.85 E29.49357
G1 X111.851 Y77.922 E30.62202
G1 X111.927 Y77.791 E30.62706
G1 X112.013 Y77.753 E30.63018
G1 X123.85 Y77.75 E31.02388
G1 X123.85 Y65.891 E31.41832
G1 X123.93 Y65.789 E31.42263
G1 X124.015 Y65.752 E31.42571
G1 X159.75 Y65.75 E32.61426
G1 X159.749 Y64.15 E32.66748
G1 X109.993 Y64.15 E34.32237
G1 X109.893 Y64.075 E34.32653
G1 X109.853 Y63.989 E34.32968
G1 X109.85 Y60.15 E34.45737
G1 X60.15 Y60.15 E36.1104
G1 X60.15 Y159.749 E39.42307
G1 X61.75 Y159.749 E39.47629
G1 X61.75 Y110.05 E41.12928
G1 X61.789 Y109.929 E41.13351
G1 X61.893 Y109.85 E41.13786
G1 X65.977 Y109.851 E41.27369
G1 X66.083 Y109.899 E41.27756
G1 X66.15 Y110.033 E41.28254
G1 X66.15 Y159.749 E42.9361
G1 X67.75 Y159.749 E42.98932
G0 F6000 X67.35 Y159.349
;TYPE:WALL-INNER
G1 F1200 X67.35 Y124.05 E44.16337
G1 X67.469 Y123.689 E44.17601
G1 X67.719 Y123.496 E44.18652
G1 X67.95 Y123.45 E44.19435
G1 X79.35 Y123.45 E44.57352
G1 X79.354 Y111.974 E44.95521
G1 X79.441 Y111.731 E44.96379
G1 X79.588 Y111.571 E44.97102
G1 X79.902 Y111.451 E44.9822
G1 X111.45 Y111.45 E46.03149
G1 X111.45 Y77.924 E47.14657
G1 X111.535 Y77.64 E47.15643
G1 X111.682 Y77.475 E47.16378
G1 X111.817 Y77.396 E47.16898
G1 X112.031 Y77.35 E47.17626
G1 X123.45 Y77.35 E47.55606
G1 X123.45 Y65.95 E47.93523
G1 X123.496 Y65.718 E47.94309
G1 X123.69 Y65.469 E47.95359
G1 X123.964 Y65.35 E47.96353
G1 X159.35 Y65.35 E49.14047
G1 X159.349 Y64.55 E49.16708
G1 X110.032 Y64.55 E50.80737
G1 X109.829 Y64.509 E50.81426
G1 X109.624 Y64.374 E50.82242
G1 X109.517 Y64.226 E50.8285
G1 X109.45 Y64.033 E50.83529
G1 X109.45 Y60.55 E50.95114
G1 X60.55 Y60.55 E52.57756
G1 X60.55 Y159.349 E55.86362
G1 X61.35 Y159.349 E55.89023
G1 X61.35 Y110.05 E57.52992
G1 X61.469 Y109.689 E57.54257
G1 X61.719 Y109.496 E57.55307
G1 X61.95 Y109.45 E57.5609
G1 X66.056 Y109.45 E57.69747
G1 X66.278 Y109.547 E57.70553
G1 X66.471 Y109.751 E57.71487
G1 X66.55 Y109.948 E57.72193
G1 X66.55 Y159.349 E59.36501
G1 X67.35 Y159.349 E59.39162
G1 F1500 E52.89162
G0 F6000 X67.08 Y159.249
G0 X67.522 Y123.622
G0 X75.021 Y123.63
G0 X74.596 Y121.638
G0 X75.021 Y121.343
G1 F1500 E59.39162
G1 F1200 X74.316 Y121.494 E59.4156
G1 X73.583 Y121.494 E59.43998
G1 X72.881 Y121.345 E59.46385
G1 X72.218 Y121.051 E59.48797
G1 X71.633 Y120.621 E59.51212
G1 X71.149 Y120.085 E59.53614
G1 X70.788 Y119.462 E59.56009
G1 X70.563 Y118.774 E59.58416
G1 X70.486 Y118.05 E59.60838
G1 X70.562 Y117.33 E59.63246
G1 X70.787 Y116.641 E59.65657
G1 X71.147 Y116.015 E59.68059
G1 X71.637 Y115.475 E59.70484
G1 X72.216 Y115.051 E59.72871
G1 X72.894 Y114.756 E59.7533
G1 X73.585 Y114.606 E59.77682
G1 X74.319 Y114.606 E59.80123
G1 X75.015 Y114.757 E59.82492
G1 X75.682 Y115.05 E59.84915
G1 X76.267 Y115.479 E59.87328
G1 X76.748 Y116.011 E59.89713
G1 X77.112 Y116.638 E59.92124
G1 X77.34 Y117.335 E59.94564
G1 X77.414 Y118.051 E59.96958
G1 X77.337 Y118.774 E59.99376
G1 X77.111 Y119.464 E60.01791
G1 X76.75 Y120.089 E60.04191
G1 X76.263 Y120.625 E60.066
G1 X75.686 Y121.047 E60.08978
G1 X75.021 Y121.343 E60.11399
G1 F1500 E53.61399
G0 F6000 X76.157 Y120.502
G0 X76.62 Y119.991
G0 X76.965 Y119.394
G0 X77.518 Y117.298
G0 X116.226 Y75.106
G0 X117.683 Y75.394
G1 F1500 E60.11399
G1 F1200 X116.981 Y75.245 E60.13786
G1 X116.318 Y74.951 E60.16198
G1 X115.733 Y74.521 E60.18613
G1 X115.249 Y73.985 E60.21015
G1 X114.888 Y73.361 E60.23412
G1 X114.663 Y72.66 E60.25861
G1 X114.586 Y71.948 E60.28243
G1 X114.663 Y71.238 E60.30618
G1 X114.887 Y70.542 E60.3305
G1 X115.247 Y69.915 E60.35455
G1 X115.737 Y69.375 E60.3788
G1 X116.314 Y68.953 E60.40258
G1 X116.979 Y68.657 E60.42679
G1 X117.684 Y68.506 E60.45077
G1 X118.417 Y68.506 E60.47515
G1 X119.121 Y68.655 E60.49908
G1 X119.775 Y68.946 E60.52289
G1 X120.366 Y69.378 E60.54724
G1 X120.848 Y69.911 E60.57114
G1 X121.212 Y70.538 E60.59525
G1 X121.44 Y71.235 E60.61964
G1 X121.514 Y71.951 E60.64359
G1 X121.437 Y72.674 E60.66777
G1 X121.211 Y73.364 E60.69192
G1 X120.85 Y73.989 E60.71592
G1 X120.363 Y74.525 E60.74001
G1 X119.786 Y74.947 E60.76379
G1 X119.121 Y75.243 E60.788
G1 X118.416 Y75.394 E60.81198
G1 X117.683 Y75.394 E60.83636
G0 F6000 X117.627 Y75.75
;TYPE:SKIN
G1 F1200 X116.858 Y75.584 E60.86252
G1 X116.114 Y75.247 E60.88969
G1 X115.478 Y74.776 E60.91601
G1 X114.945 Y74.18 E60.9426
G1 X114.566 Y73.525 E60.96777
G1 X114.31 Y72.73 E60.99555
G1 X114.226 Y71.975 E61.02082
G1 X114.309 Y71.177 E61.0475
G1 X114.565 Y70.378 E61.07541
G1 X114.944 Y69.719 E61.10069
G1 X115.512 Y69.093 E61.12881
G1 X116.113 Y68.653 E61.15358
G1 X116.853 Y68.32 E61.18057
G1 X117.632 Y68.148 E61.20711
