;FLAVOR:Marlin
;TIME:19929
;Filament used: 16.1179m
;Layer height: 0.2
;MINX:54.35
;MINY:54.35
;MINZ:0.2
;MAXX:165.549
;MAXY:165.55
;MAXZ:62
;Generated with Cura_SteamEngine 5.3.0
M82 ;absolute extrusion mode
; Ender 3 Custom Start G-code
G92 E0 ; Reset Extruder
G28 ; Home all axes
M104 S180.0 ; Start heating up the nozzle most of the way
M190 S65.0 ; Start heating the bed, wait until target temperature reached
M109 S200 ; Finish heating the nozzle
G1 Z2.0 F3000 ; Move Z Axis up little to prevent scratching of Heat Bed
G1 X0.1 Y20 Z0.3 F5000.0 ; Move to start position
G1 X0.1 Y200.0 Z0.3 F1500.0 E15 ; Draw the first line
G1 X0.4 Y200.0 Z0.3 F5000.0 ; Move to side a little
G1 X0.4 Y20 Z0.3 F1500.0 E30 ; Draw the second line
G92 E0 ; Reset Extruder
G1 Z2.0 F3000 ; Move Z Axis up little to prevent scratching of Heat Bed
G1 X5 Y20 Z0.3 F5000.0 ; Move over to prevent blob squish
G92 E0
G92 E0
G1 F1500 E-6.5
;LAYER_COUNT:310
;LAYER:0
M107
G0 F6000 X56.182 Y56.385 Z0.2
;TYPE:SKIRT
G1 F1500 E0
G1 F1200 X56.653 Y55.945 E0.02144
G1 X57.176 Y55.567 E0.0429
G1 X57.74 Y55.256 E0.06432
G1 X58.339 Y55.018 E0.08576
G1 X58.963 Y54.855 E0.10721
G1 X59.813 Y54.761 E0.13565
G1 X60.28 Y54.75 E0.15119
G1 X159.316 Y54.751 E3.44514
G1 X160.014 Y54.761 E3.46836
G1 X160.657 Y54.81 E3.48981
G1 X161.289 Y54.938 E3.51126
G1 X161.9 Y55.144 E3.5327
G1 X162.481 Y55.423 E3.55414
G1 X163.023 Y55.772 E3.57558
G1 X163.517 Y56.186 E3.59702
G1 X163.957 Y56.658 E3.61848
G1 X164.335 Y57.18 E3.63991
G1 X164.645 Y57.745 E3.66135
G1 X164.883 Y58.344 E3.68279
G1 X165.045 Y58.968 E3.70423
G1 X165.138 Y59.814 E3.73254
G1 X165.149 Y60.28 E3.74804
G1 X165.149 Y61.305 E3.78213
G1 X165.132 Y62.552 E3.82361
G1 X165.132 Y65.241 E3.91305
G1 X165.146 Y65.878 E3.93424
G1 X165.149 Y67.285 E3.98104
G1 X165.139 Y68.013 E4.00525
G1 X165.09 Y68.656 E4.0267
G1 X164.962 Y69.288 E4.04815
G1 X164.757 Y69.899 E4.06958
G1 X164.477 Y70.48 E4.09103
G1 X164.128 Y71.022 E4.11247
G1 X163.715 Y71.517 E4.13392
G1 X163.244 Y71.957 E4.15535
G1 X162.722 Y72.335 E4.17679
G1 X162.091 Y72.676 E4.20065
G1 X160.912 Y73.212 E4.24372
G1 X158.476 Y74.358 E4.33326
G1 X156.092 Y75.562 E4.42209
G1 X153.731 Y76.84 E4.51139
G1 X151.413 Y78.18 E4.60044
G1 X149.107 Y79.603 E4.69056
G1 X146.899 Y81.052 E4.7784
G1 X144.673 Y82.607 E4.86872
G1 X142.531 Y84.193 E4.95736
G1 X140.423 Y85.848 E5.0465
G1 X138.363 Y87.564 E5.13567
G1 X136.348 Y89.34 E5.22501
G1 X134.4 Y91.155 E5.31357
G1 X132.475 Y93.057 E5.40357
G1 X130.636 Y94.977 E5.492
G1 X128.82 Y96.986 E5.58207
G1 X127.098 Y99.002 E5.67025
G1 X125.393 Y101.115 E5.76056
G1 X123.772 Y103.246 E5.84961
G1 X122.219 Y105.412 E5.93826
G1 X120.719 Y107.633 E6.0274
G1 X119.289 Y109.886 E6.11615
G1 X117.897 Y112.223 E6.20663
G1 X116.583 Y114.577 E6.29629
G1 X116.235 Y115.119 E6.31771
G1 X115.822 Y115.614 E6.33916
G1 X115.351 Y116.054 E6.36059
G1 X114.829 Y116.433 E6.38205
G1 X114.435 Y116.659 E6.39716
G1 X113.111 Y117.345 E6.44675
G1 X110.738 Y118.627 E6.53646
G1 X108.409 Y119.971 E6.6259
G1 X106.137 Y121.369 E6.71462
G1 X103.887 Y122.842 E6.80407
G1 X101.696 Y124.369 E6.89289
G1 X99.509 Y125.985 E6.98334
G1 X97.419 Y127.623 E7.07166
G1 X95.37 Y129.325 E7.16025
G1 X93.337 Y131.113 E7.2503
G1 X91.387 Y132.927 E7.33888
G1 X89.46 Y134.827 E7.42889
G1 X87.621 Y136.743 E7.51722
G1 X85.814 Y138.737 E7.60672
G1 X84.062 Y140.784 E7.69634
G1 X82.375 Y142.872 E7.78562
G1 X80.775 Y144.972 E7.87343
G1 X79.187 Y147.18 E7.96389
G1 X77.691 Y149.391 E8.05268
G1 X76.253 Y151.652 E8.1418
G1 X74.881 Y153.95 E8.23082
G1 X73.572 Y156.29 E8.31999
G1 X72.325 Y158.673 E8.40945
G1 X71.082 Y161.228 E8.50395
G1 X70.648 Y162.152 E8.5379
G1 X70.338 Y162.718 E8.55937
G1 X69.961 Y163.24 E8.58079
G1 X69.521 Y163.712 E8.60225
G1 X69.027 Y164.126 E8.62368
G1 X68.485 Y164.476 E8.64514
G1 X67.905 Y164.755 E8.66655
G1 X67.294 Y164.961 E8.688
G1 X66.662 Y165.09 E8.70945
G1 X66.103 Y165.137 E8.72811
G1 X65.62 Y165.15 E8.74418
G1 X64.59 Y165.15 E8.77844
G1 X63.892 Y165.141 E8.80165
G1 X63.249 Y165.092 E8.8231
G1 X62.617 Y164.965 E8.84454
G1 X62.006 Y164.76 E8.86598
G1 X61.425 Y164.482 E8.8874
G1 X60.882 Y164.133 E8.90887
G1 X60.387 Y163.72 E8.93031
G1 X59.947 Y163.249 E8.95175
G1 X59.568 Y162.727 E8.9732
G1 X59.257 Y162.163 E8.99463
G1 X59.019 Y161.564 E9.01606
G1 X58.856 Y160.94 E9.03751
G1 X58.761 Y160.081 E9.06626
G1 X58.75 Y159.608 E9.082
G1 X58.75 Y138.015 E9.80018
G1 X58.712 Y135.34 E9.88916
G1 X58.599 Y132.667 E9.97814
G1 X58.409 Y129.992 E10.06734
G1 X58.142 Y127.301 E10.15728
G1 X57.803 Y124.651 E10.24614
G1 X57.385 Y121.988 E10.3358
G1 X56.903 Y119.396 E10.42348
G1 X56.332 Y116.742 E10.51378
G1 X55.703 Y114.177 E10.60162
G1 X54.947 Y111.437 E10.69615
G1 X54.815 Y110.806 E10.7176
G1 X54.762 Y110.209 E10.73753
G1 X54.75 Y109.72 E10.7538
G1 X54.75 Y60.554 E12.38907
G1 X54.759 Y59.889 E12.41119
G1 X54.808 Y59.246 E12.43264
G1 X54.936 Y58.614 E12.45408
G1 X55.141 Y58.003 E12.47552
G1 X55.42 Y57.422 E12.49695
G1 X55.769 Y56.879 E12.51842
G1 X56.182 Y56.385 E12.53984
G0 F6000 X55.875 Y56.128
G1 F1200 X56.38 Y55.653 E12.5629
G1 X56.983 Y55.217 E12.58765
G1 X57.592 Y54.884 E12.61073
G1 X58.191 Y54.646 E12.63217
G1 X58.919 Y54.457 E12.65719
G1 X59.769 Y54.363 E12.68563
G1 X60.28 Y54.35 E12.70263
G1 X159.322 Y54.351 E15.99678
G1 X160.044 Y54.362 E16.0208
G1 X160.687 Y54.411 E16.04225
G1 X161.417 Y54.559 E16.06702
G1 X162.073 Y54.783 E16.09008
G1 X162.654 Y55.062 E16.11151
G1 X163.28 Y55.465 E16.13628
G1 X163.81 Y55.913 E16.15936
G1 X164.25 Y56.385 E16.18082
G1 X164.659 Y56.945 E16.20388
G1 X165.017 Y57.597 E16.22862
G1 X165.255 Y58.196 E16.25006
G1 X165.443 Y58.924 E16.27507
G1 X165.536 Y59.77 E16.30338
G1 X165.549 Y60.271 E16.32005
G1 X165.549 Y61.31 E16.3546
G1 X165.532 Y62.557 E16.39608
G1 X165.532 Y65.241 E16.48535
G1 X165.546 Y65.877 E16.50651
G1 X165.549 Y67.29 E16.55351
G1 X165.538 Y68.043 E16.57856
G1 X165.489 Y68.686 E16.6
G1 X165.354 Y69.367 E16.62309
G1 X165.117 Y70.073 E16.64786
G1 X164.813 Y70.697 E16.67095
G1 X164.464 Y71.239 E16.69239
G1 X163.988 Y71.809 E16.71709
G1 X163.479 Y72.281 E16.74018
G1 X162.957 Y72.659 E16.76161
G1 X162.257 Y73.04 E16.78812
G1 X161.078 Y73.576 E16.8312
G1 X158.646 Y74.72 E16.92059
G1 X156.282 Y75.914 E17.00868
G1 X153.921 Y77.192 E17.09797
G1 X151.613 Y78.526 E17.18663
G1 X149.317 Y79.943 E17.27637
G1 X147.128 Y81.38 E17.36346
G1 X144.902 Y82.935 E17.45378
G1 X142.778 Y84.508 E17.54168
G1 X140.67 Y86.163 E17.63082
G1 X138.619 Y87.871 E17.7196
G1 X136.621 Y89.633 E17.8082
G1 X134.673 Y91.448 E17.89676
G1 X132.756 Y93.342 E17.98639
G1 X130.925 Y95.254 E18.07444
G1 X129.117 Y97.254 E18.16411
G1 X127.402 Y99.262 E18.25194
G1 X125.704 Y101.366 E18.34186
G1 X124.097 Y103.479 E18.43016
G1 X122.544 Y105.645 E18.5188
G1 X121.057 Y107.847 E18.60718
G1 X119.633 Y110.091 E18.69557
G1 X118.241 Y112.428 E18.78605
G1 X116.92 Y114.793 E18.87614
G1 X116.572 Y115.335 E18.89757
G1 X116.095 Y115.906 E18.92231
G1 X115.586 Y116.378 E18.9454
G1 X115.064 Y116.757 E18.96686
G1 X114.619 Y117.014 E18.98395
G1 X113.295 Y117.7 E19.03355
G1 X110.928 Y118.979 E19.12303
G1 X108.619 Y120.312 E19.21171
G1 X106.347 Y121.71 E19.30043
G1 X104.106 Y123.177 E19.38952
G1 X101.934 Y124.691 E19.47758
G1 X99.747 Y126.307 E19.56802
G1 X97.675 Y127.931 E19.65558
G1 X95.626 Y129.632 E19.74416
G1 X93.601 Y131.413 E19.83385
G1 X91.668 Y133.212 E19.92168
G1 X89.741 Y135.112 E20.01169
G1 X87.91 Y137.02 E20.09964
G1 X86.11 Y139.006 E20.18879
G1 X84.366 Y141.044 E20.278
G1 X82.686 Y143.123 E20.36691
G1 X81.1 Y145.206 E20.45398
G1 X79.511 Y147.414 E20.54446
G1 X78.029 Y149.606 E20.63247
G1 X76.59 Y151.867 E20.72161
G1 X75.224 Y154.155 E20.81024
G1 X73.921 Y156.485 E20.89903
G1 X72.685 Y158.848 E20.98772
G1 X71.442 Y161.403 E21.08223
G1 X70.999 Y162.344 E21.11682
G1 X70.689 Y162.91 E21.13828
G1 X70.254 Y163.513 E21.16301
G1 X69.814 Y163.985 E21.18448
G1 X69.284 Y164.433 E21.20756
G1 X68.702 Y164.812 E21.23066
G1 X68.033 Y165.134 E21.25535
G1 X67.374 Y165.353 E21.27845
G1 X66.696 Y165.489 E21.30145
G1 X66.114 Y165.537 E21.32087
G1 X65.631 Y165.55 E21.33694
G1 X64.585 Y165.55 E21.37173
G1 X63.862 Y165.54 E21.39578
G1 X63.219 Y165.491 E21.41723
G1 X62.538 Y165.357 E21.44031
G1 X61.833 Y165.121 E21.46504
G1 X61.252 Y164.843 E21.48646
G1 X60.626 Y164.44 E21.51123
G1 X60.095 Y163.993 E21.53431
G1 X59.623 Y163.484 E21.5574
G1 X59.244 Y162.962 E21.57885
G1 X58.885 Y162.311 E21.60358
G1 X58.647 Y161.712 E21.62502
G1 X58.458 Y160.984 E21.65004
G1 X58.363 Y160.125 E21.67878
G1 X58.35 Y159.617 E21.69568
G1 X58.35 Y138.015 E22.41417
G1 X58.312 Y135.346 E22.50295
G1 X58.199 Y132.684 E22.59157
G1 X58.01 Y130.02 E22.68039
G1 X57.745 Y127.352 E22.76957
G1 X57.406 Y124.702 E22.85843
G1 X56.99 Y122.05 E22.94771
G1 X56.51 Y119.469 E23.03503
G1 X55.941 Y116.826 E23.12495
G1 X55.317 Y114.283 E23.21204
G1 X54.555 Y111.519 E23.3074
G1 X54.423 Y110.888 E23.32884
G1 X54.362 Y110.219 E23.35118
G1 X54.35 Y109.73 E23.36745
G1 X54.35 Y60.549 E25.00322
G1 X54.36 Y59.859 E25.02617
G1 X54.409 Y59.216 E25.04762
G1 X54.544 Y58.535 E25.07071
G1 X54.78 Y57.83 E25.09544
G1 X55.059 Y57.249 E25.11687
G1 X55.462 Y56.622 E25.14166
G1 X55.875 Y56.128 E25.16308
G1 F1500 E18.66308
;MESH:FLT.stl
G0 F6000 X114.893 Y75.773
G0 X117.436 Y76.948
;TYPE:WALL-OUTER
G1 F1500 E25.16308
G1 F1200 X116.784 Y76.737 E25.18587
G1 X116.233 Y76.412 E25.20715
G1 X115.764 Y75.981 E25.22833
G1 X115.413 Y75.501 E25.24811
G1 X115.14 Y74.893 E25.27028
G1 X115.006 Y74.267 E25.29157
G1 X115.008 Y73.62 E25.31309
G1 X115.138 Y73.008 E25.3339
G1 X115.411 Y72.401 E25.35604
G1 X115.791 Y71.89 E25.37722
G1 X116.235 Y71.489 E25.39712
G1 X116.82 Y71.149 E25.41962
G1 X117.423 Y70.954 E25.4407
G1 X118.071 Y70.891 E25.46235
G1 X118.705 Y70.961 E25.48357
G1 X119.279 Y71.149 E25.50366
G1 X119.865 Y71.487 E25.52616
G1 X120.338 Y71.922 E25.54753
G1 X120.687 Y72.399 E25.56719
G1 X120.952 Y72.986 E25.58861
G1 X121.09 Y73.609 E25.60983
G1 X121.092 Y74.284 E25.63229
G1 X120.953 Y74.916 E25.65381
G1 X120.689 Y75.499 E25.67509
G1 X120.309 Y76.01 E25.69627
G1 X119.832 Y76.436 E25.71755
G1 X119.279 Y76.751 E25.73871
G1 X118.663 Y76.948 E25.76022
G1 X118.029 Y77.009 E25.78141
G1 X117.436 Y76.948 E25.80123
G1 F1500 E19.30123
G0 F6000 X117.386 Y77.447
G0 X116.564 Y77.281
G0 X75.575 Y117.67
G0 X73.218 Y120.834
G1 F1500 E25.80123
G1 F1200 X72.563 Y121.048 E25.82415
G1 X71.929 Y121.109 E25.84534
G1 X71.337 Y121.048 E25.86513
G1 X70.721 Y120.851 E25.88664
G1 X70.135 Y120.513 E25.90914
G1 X69.662 Y120.078 E25.93052
G1 X69.313 Y119.601 E25.95017
G1 X69.048 Y119.014 E25.9716
G1 X68.908 Y118.384 E25.99306
G1 X68.91 Y117.709 E26.01551
G1 X69.047 Y117.084 E26.03679
G1 X69.311 Y116.501 E26.05808
G1 X69.691 Y115.99 E26.07926
G1 X70.135 Y115.589 E26.09916
G1 X70.72 Y115.249 E26.12166
G1 X71.318 Y115.055 E26.14257
G1 X71.934 Y114.99 E26.16317
G1 X72.582 Y115.055 E26.18483
G1 X73.185 Y115.251 E26.20592
G1 X73.765 Y115.587 E26.22822
G1 X74.238 Y116.022 E26.24959
G1 X74.587 Y116.499 E26.26925
G1 X74.852 Y117.086 E26.29067
G1 X74.99 Y117.709 E26.31189
G1 X74.992 Y118.384 E26.33434
G1 X74.853 Y119.016 E26.35587
G1 X74.589 Y119.599 E26.37715
G1 X74.236 Y120.08 E26.397
G1 X73.765 Y120.511 E26.41823
G1 X73.218 Y120.834 E26.43936
G1 F1500 E19.93936
G0 F6000 X73.47 Y121.267
G0 X72.714 Y121.614
G0 X72.714 Y123.63
G0 X65.75 Y159.75
G1 F1500 E26.43936
G1 F1200 X65.75 Y124.05 E27.62675
G1 X65.789 Y123.929 E27.63098
G1 X65.893 Y123.85 E27.63532
G1 X77.75 Y123.85 E28.02968
G1 X77.753 Y112.013 E28.42338
G1 X77.791 Y111.927 E28.42651
G1 X77.89 Y111.85 E28.43068
G1 X111.85 Y111.85 E29.5602
G1 X111.852 Y79.917 E30.62229
G1 X111.915 Y79.801 E30.62668
G1 X112.025 Y79.751 E30.6307
G1 X123.85 Y79.75 E31.024
G1 X123.85 Y67.891 E31.41844
G1 X123.93 Y67.789 E31.42275
G1 X124.015 Y67.752 E31.42583
G1 X159.749 Y67.75 E32.61435
G1 X159.749 Y66.15 E32.66756
G1 X109.993 Y66.15 E34.32246
G1 X109.889 Y66.07 E34.32682
G1 X109.851 Y65.977 E34.33016
G1 X109.85 Y61.891 E34.46606
G1 X109.93 Y61.789 E34.47037
G1 X110.015 Y61.752 E34.47346
G1 X159.749 Y61.75 E36.12762
G1 X159.749 Y60.15 E36.18083
G1 X60.15 Y60.15 E39.49351
G1 X60.15 Y109.85 E41.14654
G1 X63.989 Y109.853 E41.27422
G1 X64.075 Y109.893 E41.27738
G1 X64.15 Y109.993 E41.28154
G1 X64.15 Y159.75 E42.93646
G1 X65.75 Y159.75 E42.98968
G0 F6000 X65.35 Y159.35
;TYPE:WALL-INNER
G1 F1200 X65.35 Y124.05 E44.16376
G1 X65.469 Y123.689 E44.1764
G1 X65.719 Y123.496 E44.18691
G1 X65.95 Y123.45 E44.19474
G1 X77.35 Y123.45 E44.57391
G1 X77.35 Y112.031 E44.9537
G1 X77.396 Y111.817 E44.96098
G1 X77.565 Y111.589 E44.97042
G1 X77.715 Y111.497 E44.97628
G1 X77.924 Y111.45 E44.9834
G1 X111.45 Y111.45 E46.09848
G1 X111.451 Y79.902 E47.14777
G1 X111.492 Y79.727 E47.15375
G1 X111.647 Y79.504 E47.16278
G1 X111.956 Y79.35 E47.17426
G1 X123.45 Y79.35 E47.55656
G1 X123.45 Y67.95 E47.93572
G1 X123.496 Y67.718 E47.94359
G1 X123.69 Y67.469 E47.95409
G1 X123.964 Y67.35 E47.96402
G1 X159.349 Y67.35 E49.14093
G1 X159.349 Y66.55 E49.16754
G1 X110.023 Y66.55 E50.80813
G1 X109.83 Y66.509 E50.81469
G1 X109.646 Y66.395 E50.82189
G1 X109.505 Y66.202 E50.82984
G1 X109.45 Y65.95 E50.83842
G1 X109.45 Y61.95 E50.97146
G1 X109.496 Y61.718 E50.97933
G1 X109.69 Y61.469 E50.98983
G1 X109.964 Y61.35 E50.99976
G1 X159.349 Y61.35 E52.64231
G1 X159.349 Y60.55 E52.66892
G1 X60.55 Y60.55 E55.95499
G1 X60.55 Y109.45 E57.58141
G1 X64.034 Y109.45 E57.69729
G1 X64.226 Y109.516 E57.70404
G1 X64.374 Y109.624 E57.71014
G1 X64.519 Y109.858 E57.71929
G1 X64.55 Y109.987 E57.7237
G1 X64.55 Y159.35 E59.36552
G1 X65.35 Y159.35 E59.39213
G1 F1500 E52.89213
G0 F6000 X65.522 Y123.622
G0 X73.418 Y123.63
G0 X72.755 Y121.599
G0 X73.367 Y121.211
G1 F1500 E59.39213
G1 F1200 X72.674 Y121.437 E59.41638
G1 X71.951 Y121.514 E59.44056
G1 X71.234 Y121.44 E59.46453
G1 X70.536 Y121.211 E59.48897
G1 X69.914 Y120.853 E59.51284
G1 X69.374 Y120.362 E59.53711
G1 X68.965 Y119.8 E59.56023
G1 X68.658 Y119.123 E59.58495
G1 X68.506 Y118.416 E59.60901
G1 X68.506 Y117.683 E59.63339
G1 X68.655 Y116.979 E59.65732
G1 X68.949 Y116.318 E59.68138
G1 X69.379 Y115.733 E59.70553
G1 X69.911 Y115.252 E59.72938
G1 X70.539 Y114.887 E59.75354
G1 X71.239 Y114.663 E59.77799
G1 X71.951 Y114.586 E59.80181
G1 X72.661 Y114.663 E59.82556
G1 X73.359 Y114.887 E59.84994
G1 X73.989 Y115.25 E59.87412
G1 X74.525 Y115.737 E59.89821
G1 X74.947 Y116.314 E59.92199
G1 X75.243 Y116.979 E59.9462
G1 X75.394 Y117.686 E59.97024
G1 X75.394 Y118.415 E59.99449
G1 X75.243 Y119.123 E60.01857
G1 X74.952 Y119.779 E60.04244
G1 X74.524 Y120.364 E60.06655
G1 X73.989 Y120.848 E60.09054
G1 X73.367 Y121.211 E60.11449
G1 F1500 E53.61449
G0 F6000 X73.418 Y121.297
G0 X74.402 Y120.257
G0 X74.808 Y119.702
G0 X75.575 Y117.67
G0 X117.297 Y77.518
G0 X118.051 Y77.414
G1 F1500 E60.11449
G1 F1200 X117.332 Y77.34 E60.13853
G1 X116.634 Y77.112 E60.16296
G1 X116.012 Y76.752 E60.18686
G1 X115.477 Y76.266 E60.2109
G1 X115.052 Y75.684 E60.23487
G1 X114.758 Y75.013 E60.25923
G1 X114.606 Y74.309 E60.28319
G1 X114.606 Y73.588 E60.30717
G1 X114.755 Y72.892 E60.33084
G1 X115.049 Y72.218 E60.3553
G1 X115.481 Y71.631 E60.37954
G1 X116.011 Y71.152 E60.4033
G1 X116.638 Y70.788 E60.42742
G1 X117.326 Y70.563 E60.45149
G1 X118.05 Y70.486 E60.47571
G1 X118.771 Y70.562 E60.49982
G1 X119.46 Y70.788 E60.52394
G1 X120.088 Y71.15 E60.54805
G1 X120.625 Y71.637 E60.57216
G1 X121.047 Y72.214 E60.59594
G1 X121.343 Y72.879 E60.62015
G1 X121.494 Y73.586 E60.64419
G1 X121.494 Y74.315 E60.66844
G1 X121.343 Y75.023 E60.69251
G1 X121.052 Y75.679 E60.71638
G1 X120.622 Y76.267 E60.74061
G1 X120.085 Y76.752 E60.76468
G1 X119.462 Y77.112 E60.78861
G1 X118.774 Y77.337 E60.81269
G1 X118.051 Y77.414 E60.83687
G0 F6000 X118.072 Y77.775
;TYPE:SKIN
G1 F1200 X117.28 Y77.697 E60.86334
G1 X116.512 Y77.455 E60.89012
G1 X115.783 Y77.031 E60.91817
G1 X115.195 Y76.491 E60.94472
G1 X114.727 Y75.844 E60.97128
G1 X114.421 Y75.143 E60.99672
G1 X114.246 Y74.341 E61.02402
G1 X114.248 Y73.54 E61.05067
G1 X114.408 Y72.775 E61.07666
G1 X114.752 Y72.014 E61.10444
G1 X115.223 Y71.379 E61.13073
G1 X115.816 Y70.849 E61.15719
G1 X116.511 Y70.452 E61.18381
G1 X117.257 Y70.209 E61.2099
